;START_OF_HEADER
;HEADER_VERSION:0.1
;FLAVOR:Griffin
;GENERATOR.NAME:Cura_SteamEngine
;GENERATOR.VERSION:5.7.2
;GENERATOR.BUILD_DATE:2024-05-30
;TARGET_MACHINE.NAME:Ultimaker 3
;EXTRUDER_TRAIN.0.INITIAL_TEMPERATURE:200
;EXTRUDER_TRAIN.0.MATERIAL.VOLUME_USED:15433
;EXTRUDER_TRAIN.0.MATERIAL.GUID:506c9f0d-e3aa-4bd4-b2d2-23e2425b1aa9
;EXTRUDER_TRAIN.0.NOZZLE.DIAMETER:0.4
;EXTRUDER_TRAIN.0.NOZZLE.NAME:AA 0.4
;BUILD_PLATE.INITIAL_TEMPERATURE:60
;PRINT.TIME:6735
;PRINT.GROUPS:1
;PRINT.SIZE.MIN.X:9
;PRINT.SIZE.MIN.Y:6
;PRINT.SIZE.MIN.Z:0.2
;PRINT.SIZE.MAX.X:170.309
;PRINT.SIZE.MAX.Y:138.34
;PRINT.SIZE.MAX.Z:20
;SLICE_UUID:d0f58617-43b9-4ae7-834d-8d9fe269b88e
;END_OF_HEADER
;Generated with Cura_SteamEngine 5.7.2
T0
M82 ;absolute extrusion mode

G92 E0
M190 S60
M104 S200
M109 S200
G0 F15000 X9 Y6 Z2
G280
G1 F1500 E-6.5
;LAYER_COUNT:100
;LAYER:0
M106 S255
M204 S1000
M205 X20 Y20
G1 F600 Z2.2
G0 F15000 X77.197 Y72.65 Z2.2
;TYPE:SKIRT
G1 F600 Z0.2
G1 F1500 E0
G1 F1800 X79.632 Y70.285 E0.04257
G1 X82.404 Y69.38 E0.07914
G1 X94.545 Y69.38 E0.23139
G1 X97.039 Y70.228 E0.26442
G1 X99.404 Y72.663 E0.30699
G1 X100.309 Y75.435 E0.34356
G1 X100.309 Y79.38 E0.39303
G1 X146.349 Y79.38 E0.97039
G1 X146.349 Y75.144 E1.02351
G1 X147.197 Y72.65 E1.05654
G1 X149.632 Y70.285 E1.09911
G1 X152.404 Y69.38 E1.13568
G1 X164.545 Y69.38 E1.28793
G1 X167.039 Y70.228 E1.32097
G1 X169.404 Y72.663 E1.36353
G1 X170.309 Y75.435 E1.4001
G1 X170.309 Y132.231 E2.11234
G1 X169.935 Y133.949 E2.13439
G1 X168.953 Y135.559 E2.15804
G1 X167.009 Y137.445 E2.19201
G1 X164.248 Y138.34 E2.22841
G1 X82.458 Y138.34 E3.25408
G1 X80.74 Y137.966 E3.27613
G1 X79.13 Y136.984 E3.29978
G1 X77.244 Y135.04 E3.33375
G1 X76.349 Y132.279 E3.37014
G1 X76.349 Y75.144 E4.08664
G1 X77.197 Y72.65 E4.11967
G0 F15000 X77.545 Y72.87
G1 F1800 X79.845 Y70.636 E4.15988
G1 X82.467 Y69.78 E4.19447
G1 X94.478 Y69.78 E4.34509
G1 X96.819 Y70.576 E4.3761
G1 X99.053 Y72.876 E4.41631
G1 X99.909 Y75.498 E4.4509
G1 X99.909 Y79.78 E4.5046
G1 X146.749 Y79.78 E5.09199
G1 X146.749 Y75.211 E5.14928
G1 X147.545 Y72.87 E5.18029
G1 X149.845 Y70.636 E5.2205
G1 X152.467 Y69.78 E5.25509
G1 X164.478 Y69.78 E5.40571
G1 X166.819 Y70.576 E5.43672
G1 X169.053 Y72.876 E5.47693
G1 X169.909 Y75.498 E5.51152
G1 X169.909 Y132.187 E6.22242
G1 X169.558 Y133.8 E6.24312
G1 X168.64 Y135.305 E6.26523
G1 X166.797 Y137.093 E6.29743
G1 X164.184 Y137.94 E6.33187
G1 X82.502 Y137.94 E7.3562
G1 X80.889 Y137.589 E7.3769
G1 X79.384 Y136.671 E7.39901
G1 X77.596 Y134.828 E7.43121
G1 X76.749 Y132.215 E7.46565
G1 X76.749 Y75.211 E8.1805
G1 X77.545 Y72.87 E8.21151
G0 F15000 X77.893 Y73.09
G1 F1800 X80.058 Y70.987 E8.24936
G1 X82.53 Y70.18 E8.28197
G1 X94.411 Y70.18 E8.43096
G1 X96.599 Y70.924 E8.45995
G1 X98.702 Y73.089 E8.4978
G1 X99.509 Y75.561 E8.53041
G1 X99.509 Y80.18 E8.58833
G1 X147.149 Y80.18 E9.18575
G1 X147.149 Y75.278 E9.24723
G1 X147.893 Y73.09 E9.27621
G1 X150.058 Y70.987 E9.31406
G1 X152.53 Y70.18 E9.34667
G1 X164.411 Y70.18 E9.49566
G1 X166.599 Y70.924 E9.52464
G1 X168.702 Y73.089 E9.56249
G1 X169.509 Y75.561 E9.5951
G1 X169.509 Y132.143 E10.30466
G1 X169.181 Y133.651 E10.32401
G1 X168.327 Y135.051 E10.34458
G1 X166.585 Y136.741 E10.37501
G1 X164.12 Y137.54 E10.40751
G1 X82.546 Y137.54 E11.43048
G1 X81.038 Y137.212 E11.44983
G1 X79.638 Y136.358 E11.4704
G1 X77.948 Y134.616 E11.50083
G1 X77.149 Y132.151 E11.53333
G1 X77.149 Y75.278 E12.24654
G1 X77.893 Y73.09 E12.27552
G0 F15000 X78.241 Y73.31
G1 F1800 X80.271 Y71.338 E12.31101
G1 X82.593 Y70.58 E12.34164
G1 X94.344 Y70.58 E12.489
G1 X96.379 Y71.272 E12.51596
G1 X98.351 Y73.302 E12.55145
G1 X99.109 Y75.624 E12.58208
G1 X99.109 Y80.58 E12.64423
G1 X147.549 Y80.58 E13.25168
G1 X147.549 Y75.345 E13.31733
G1 X148.241 Y73.31 E13.34429
G1 X150.271 Y71.338 E13.37978
G1 X152.593 Y70.58 E13.41041
G1 X164.344 Y70.58 E13.55777
G1 X166.379 Y71.272 E13.58473
G1 X168.351 Y73.302 E13.62022
G1 X169.109 Y75.624 E13.65085
G1 X169.109 Y132.099 E14.35906
G1 X168.804 Y133.502 E14.37707
G1 X168.014 Y134.797 E14.39609
G1 X166.373 Y136.389 E14.42476
G1 X164.056 Y137.14 E14.45531
G1 X82.59 Y137.14 E15.47692
G1 X81.187 Y136.835 E15.49493
G1 X79.892 Y136.045 E15.51395
G1 X78.3 Y134.404 E15.54262
G1 X77.549 Y132.087 E15.57317
G1 X77.549 Y75.345 E16.28473
G1 X78.241 Y73.31 E16.31169
G0 F15000 X78.589 Y73.53
G1 F1800 X80.484 Y71.689 E16.34482
G1 X82.656 Y70.98 E16.37347
G1 X94.277 Y70.98 E16.5192
G1 X96.159 Y71.62 E16.54413
G1 X98 Y73.515 E16.57726
G1 X98.709 Y75.687 E16.60591
G1 X98.709 Y80.98 E16.67229
G1 X147.949 Y80.98 E17.28978
G1 X147.949 Y75.412 E17.3596
G1 X148.589 Y73.53 E17.38453
G1 X150.484 Y71.689 E17.41766
G1 X152.656 Y70.98 E17.44632
G1 X164.277 Y70.98 E17.59205
G1 X166.159 Y71.62 E17.61698
G1 X168 Y73.515 E17.65011
G1 X168.709 Y75.687 E17.67876
G1 X168.709 Y132.055 E18.38564
G1 X168.427 Y133.353 E18.40229
G1 X167.701 Y134.543 E18.41977
G1 X166.161 Y136.037 E18.44668
G1 X163.992 Y136.74 E18.47527
G1 X82.634 Y136.74 E19.49553
G1 X81.336 Y136.458 E19.51219
G1 X80.146 Y135.732 E19.52967
G1 X78.652 Y134.192 E19.55658
G1 X77.949 Y132.023 E19.58517
G1 X77.949 Y75.412 E20.29509
G1 X78.589 Y73.53 E20.32002
G0 F15000 X78.937 Y73.75
G1 F1800 X80.697 Y72.04 E20.3508
G1 X82.719 Y71.38 E20.37747
G1 X94.21 Y71.38 E20.52157
G1 X95.939 Y71.968 E20.54447
G1 X97.649 Y73.728 E20.57524
G1 X98.309 Y75.75 E20.60192
G1 X98.309 Y81.38 E20.67252
G1 X148.349 Y81.38 E21.30004
G1 X148.349 Y75.479 E21.37404
G1 X148.937 Y73.75 E21.39694
G1 X150.697 Y72.04 E21.42772
G1 X152.719 Y71.38 E21.45439
G1 X164.21 Y71.38 E21.59849
G1 X165.939 Y71.968 E21.62139
G1 X167.649 Y73.728 E21.65217
G1 X168.309 Y75.75 E21.67884
G1 X168.309 Y132.011 E22.38437
G1 X168.05 Y133.204 E22.39968
G1 X167.388 Y134.289 E22.41562
G1 X165.949 Y135.685 E22.44076
G1 X163.928 Y136.34 E22.4674
G1 X82.678 Y136.34 E23.48631
G1 X81.485 Y136.081 E23.50162
G1 X80.4 Y135.419 E23.51756
G1 X79.004 Y133.98 E23.5427
G1 X78.349 Y131.959 E23.56934
G1 X78.349 Y75.479 E24.27762
G1 X78.937 Y73.75 E24.30052
G0 F15000 X79.285 Y73.97
G1 F1800 X80.91 Y72.391 E24.32894
G1 X82.782 Y71.78 E24.35363
G1 X94.143 Y71.78 E24.4961
G1 X95.719 Y72.316 E24.51698
G1 X97.298 Y73.941 E24.54539
G1 X97.909 Y75.813 E24.57009
G1 X97.909 Y81.78 E24.64492
G1 X148.749 Y81.78 E25.28247
G1 X148.749 Y75.546 E25.36064
G1 X149.285 Y73.97 E25.38152
G1 X150.91 Y72.391 E25.40993
G1 X152.782 Y71.78 E25.43463
G1 X164.143 Y71.78 E25.5771
G1 X165.719 Y72.316 E25.59797
G1 X167.298 Y73.941 E25.62639
G1 X167.909 Y75.813 E25.65108
G1 X167.909 Y131.967 E26.35528
G1 X167.673 Y133.055 E26.36924
G1 X167.075 Y134.035 E26.38363
G1 X165.737 Y135.333 E26.40701
G1 X163.864 Y135.94 E26.4317
G1 X82.722 Y135.94 E27.44925
G1 X81.634 Y135.704 E27.46321
G1 X80.654 Y135.106 E27.47761
G1 X79.356 Y133.768 E27.50099
G1 X78.749 Y131.895 E27.52568
G1 X78.749 Y75.546 E28.23232
G1 X79.285 Y73.97 E28.25319
G0 F15000 X79.633 Y74.19
G1 F1800 X79.149 Y75.613 E28.27204
G1 X79.149 Y131.834 E28.97707
G1 X79.707 Y133.555 E28.99976
G1 X80.906 Y134.791 E29.02135
G1 X81.785 Y135.327 E29.03427
G1 X82.766 Y135.54 E29.04685
G1 X163.803 Y135.54 E30.06309
G1 X165.524 Y134.982 E30.08578
G1 X166.76 Y133.783 E30.10737
G1 X167.296 Y132.904 E30.12028
G1 X167.509 Y131.923 E30.13287
G1 X167.509 Y75.876 E30.83572
G1 X166.947 Y74.154 E30.85844
G1 X165.499 Y72.664 E30.88449
G1 X164.076 Y72.18 E30.90334
G1 X152.845 Y72.18 E31.04418
G1 X151.123 Y72.742 E31.0669
G1 X149.633 Y74.19 E31.09295
G1 X149.149 Y75.613 E31.1118
G1 X149.149 Y82.18 E31.19415
G1 X97.509 Y82.18 E31.84174
G1 X97.509 Y75.876 E31.92079
G1 X96.947 Y74.154 E31.94351
G1 X95.499 Y72.664 E31.96956
G1 X94.076 Y72.18 E31.98841
G1 X82.845 Y72.18 E32.12925
G1 X81.123 Y72.742 E32.15197
G1 X79.633 Y74.19 E32.17802
G0 F15000 X79.981 Y74.41
G1 F1800 X79.549 Y75.68 E32.19485
G1 X79.549 Y131.773 E32.89827
G1 X80.058 Y133.342 E32.91896
G1 X81.158 Y134.476 E32.93877
G1 X81.936 Y134.95 E32.95019
G1 X82.81 Y135.14 E32.96141
G1 X163.742 Y135.14 E33.97633
G1 X165.311 Y134.631 E33.99701
G1 X166.445 Y133.531 E34.01682
G1 X166.919 Y132.753 E34.02825
G1 X167.109 Y131.879 E34.03947
G1 X167.109 Y75.939 E34.74097
G1 X166.596 Y74.367 E34.76171
G1 X165.279 Y73.012 E34.78541
G1 X164.009 Y72.58 E34.80223
G1 X152.908 Y72.58 E34.94144
G1 X151.336 Y73.093 E34.96218
G1 X149.981 Y74.41 E34.98587
G1 X149.549 Y75.68 E35.00269
G1 X149.549 Y82.58 E35.08922
G1 X97.109 Y82.58 E35.74684
G1 X97.109 Y75.939 E35.83012
G1 X96.596 Y74.367 E35.85086
G1 X95.279 Y73.012 E35.87455
G1 X94.009 Y72.58 E35.89138
G1 X82.908 Y72.58 E36.03059
G1 X81.336 Y73.093 E36.05132
G1 X79.981 Y74.41 E36.07502
G0 F15000 X80.329 Y74.63
G1 F1800 X79.949 Y75.747 E36.08982
G1 X79.949 Y131.712 E36.79164
G1 X80.409 Y133.13 E36.81033
G1 X81.407 Y134.159 E36.82831
G1 X82.087 Y134.573 E36.83829
G1 X82.854 Y134.74 E36.84814
G1 X163.681 Y134.74 E37.86174
G1 X165.099 Y134.28 E37.88043
G1 X166.128 Y133.282 E37.89841
G1 X166.542 Y132.602 E37.90839
G1 X166.709 Y131.835 E37.91823
G1 X166.709 Y76.002 E38.6184
G1 X166.245 Y74.58 E38.63716
G1 X165.059 Y73.36 E38.6585
G1 X163.942 Y72.98 E38.67329
G1 X152.971 Y72.98 E38.81087
G1 X151.549 Y73.444 E38.82963
G1 X150.329 Y74.63 E38.85097
G1 X149.949 Y75.747 E38.86576
G1 X149.949 Y82.98 E38.95647
G1 X96.709 Y82.98 E39.62412
G1 X96.709 Y76.002 E39.71162
G1 X96.245 Y74.58 E39.73038
G1 X95.059 Y73.36 E39.75172
G1 X93.942 Y72.98 E39.76651
G1 X82.971 Y72.98 E39.90409
G1 X81.549 Y73.444 E39.92285
G1 X80.329 Y74.63 E39.94419
G0 F15000 X80.677 Y74.85
G1 F1800 X81.762 Y73.795 E39.96317
G1 X83.034 Y73.38 E39.97995
G1 X93.875 Y73.38 E40.1159
G1 X94.839 Y73.708 E40.12867
G1 X95.894 Y74.793 E40.14764
G1 X96.309 Y76.065 E40.16442
G1 X96.309 Y83.38 E40.25616
G1 X150.349 Y83.38 E40.93384
G1 X150.349 Y75.814 E41.02872
G1 X150.677 Y74.85 E41.04149
G1 X151.762 Y73.795 E41.06047
G1 X153.034 Y73.38 E41.07724
G1 X163.875 Y73.38 E41.21319
G1 X164.839 Y73.708 E41.22596
G1 X165.894 Y74.793 E41.24494
G1 X166.309 Y76.065 E41.26172
G1 X166.309 Y131.791 E41.96055
G1 X166.165 Y132.451 E41.96902
G1 X165.811 Y133.033 E41.97756
G1 X164.887 Y133.929 E41.9937
G1 X163.62 Y134.34 E42.0104
G1 X82.898 Y134.34 E43.02269
G1 X82.238 Y134.196 E43.03116
G1 X81.656 Y133.842 E43.0397
G1 X80.76 Y132.918 E43.05584
G1 X80.349 Y131.651 E43.07255
G1 X80.349 Y75.814 E43.77276
G1 X80.677 Y74.85 E43.78553
G0 F15000 X81.025 Y75.07
G1 F1800 X81.975 Y74.146 E43.80215
G1 X83.097 Y73.78 E43.81695
G1 X93.808 Y73.78 E43.95127
G1 X94.619 Y74.056 E43.96201
G1 X95.543 Y75.006 E43.97863
G1 X95.909 Y76.128 E43.99343
G1 X95.909 Y83.78 E44.08939
G1 X150.749 Y83.78 E44.77711
G1 X150.749 Y75.881 E44.87616
G1 X151.025 Y75.07 E44.88691
G1 X151.975 Y74.146 E44.90352
G1 X153.097 Y73.78 E44.91832
G1 X163.808 Y73.78 E45.05264
G1 X164.619 Y74.056 E45.06339
G1 X165.543 Y75.006 E45.08001
G1 X165.909 Y76.128 E45.09481
G1 X165.909 Y131.747 E45.79229
G1 X165.788 Y132.3 E45.79939
G1 X165.494 Y132.784 E45.80649
G1 X164.675 Y133.578 E45.82079
G1 X163.559 Y133.94 E45.83551
G1 X82.942 Y133.94 E46.84647
G1 X82.389 Y133.819 E46.85357
G1 X81.905 Y133.525 E46.86067
G1 X81.111 Y132.706 E46.87498
G1 X80.749 Y131.59 E46.88969
G1 X80.749 Y75.881 E47.5883
G1 X81.025 Y75.07 E47.59905
G0 F15000 X81.373 Y75.29
G1 F1800 X82.188 Y74.497 E47.61331
G1 X83.16 Y74.18 E47.62613
G1 X93.741 Y74.18 E47.75882
G1 X94.399 Y74.404 E47.76753
G1 X95.192 Y75.219 E47.78179
G1 X95.509 Y76.191 E47.79462
G1 X95.509 Y84.18 E47.8948
G1 X151.149 Y84.18 E48.59255
G1 X151.149 Y75.948 E48.69578
G1 X151.373 Y75.29 E48.7045
G1 X152.188 Y74.497 E48.71876
G1 X153.16 Y74.18 E48.73158
G1 X163.741 Y74.18 E48.86427
G1 X164.399 Y74.404 E48.87298
G1 X165.192 Y75.219 E48.88724
G1 X165.509 Y76.191 E48.90006
G1 X165.509 Y131.747 E49.59676
G1 X165.399 Y132.207 E49.60269
G1 X165.216 Y132.497 E49.60699
G1 X164.464 Y133.226 E49.62012
G1 X163.497 Y133.54 E49.63287
G1 X82.942 Y133.54 E50.64306
G1 X82.482 Y133.43 E50.64899
G1 X82.192 Y133.247 E50.65329
G1 X81.463 Y132.495 E50.66643
G1 X81.149 Y131.528 E50.67918
G1 X81.149 Y75.948 E51.37617
G1 X81.373 Y75.29 E51.38489
G0 F15000 X81.721 Y75.51
G1 F1800 X82.401 Y74.848 E51.39679
G1 X83.223 Y74.58 E51.40763
G1 X93.674 Y74.58 E51.53869
G1 X94.179 Y74.752 E51.54538
G1 X94.841 Y75.432 E51.55728
G1 X95.109 Y76.254 E51.56812
G1 X95.109 Y84.58 E51.67254
G1 X151.549 Y84.58 E52.38031
G1 X151.549 Y76.015 E52.48772
G1 X151.721 Y75.51 E52.49441
G1 X152.401 Y74.848 E52.50631
G1 X153.223 Y74.58 E52.51716
G1 X163.674 Y74.58 E52.64822
G1 X164.179 Y74.752 E52.65491
G1 X164.841 Y75.432 E52.66681
G1 X165.109 Y76.254 E52.67765
G1 X165.109 Y131.707 E53.37305
G1 X165.05 Y132.011 E53.37693
G1 X164.938 Y132.21 E53.3798
G1 X164.253 Y132.874 E53.39176
G1 X163.435 Y133.14 E53.40255
G1 X82.982 Y133.14 E54.41146
G1 X82.678 Y133.081 E54.41534
G1 X82.479 Y132.969 E54.4182
G1 X81.815 Y132.284 E54.43017
G1 X81.549 Y131.466 E54.44096
G1 X81.549 Y76.015 E55.13633
G1 X81.721 Y75.51 E55.14302
G0 F15000 X82 Y75.797
G1 F1800 X82.614 Y75.199 E55.15377
G1 X83.286 Y74.98 E55.16263
G1 X93.674 Y74.98 E55.2929
G1 X93.892 Y75.031 E55.29571
G1 X94.49 Y75.645 E55.30646
G1 X94.709 Y76.317 E55.31532
G1 X94.709 Y84.98 E55.42396
G1 X151.949 Y84.98 E56.14177
G1 X151.949 Y76.015 E56.25419
G1 X152 Y75.797 E56.257
G1 X152.614 Y75.199 E56.26775
G1 X153.286 Y74.98 E56.27661
G1 X163.674 Y74.98 E56.40688
G1 X163.892 Y75.031 E56.40969
G1 X164.49 Y75.645 E56.42044
G1 X164.709 Y76.317 E56.4293
G1 X164.709 Y131.707 E57.12391
G1 X164.66 Y131.923 E57.12669
G1 X164.042 Y132.522 E57.13748
G1 X163.372 Y132.74 E57.14632
G1 X82.982 Y132.74 E58.15444
G1 X82.766 Y132.691 E58.15722
G1 X82.167 Y132.073 E58.16801
G1 X81.949 Y131.403 E58.17685
G1 X81.949 Y76.015 E58.87143
G1 X82 Y75.797 E58.87424
G0 F15000 X82.349 Y76.015
G1 F1800 X82.827 Y75.55 E58.8826
G1 X83.349 Y75.38 E58.88949
G1 X93.674 Y75.38 E59.01897
G1 X94.139 Y75.858 E59.02733
G1 X94.309 Y76.38 E59.03421
G1 X94.309 Y85.38 E59.14708
G1 X152.349 Y85.38 E59.87492
G1 X152.349 Y76.015 E59.99236
G1 X152.827 Y75.55 E60.00072
G1 X153.349 Y75.38 E60.00761
G1 X163.674 Y75.38 E60.13709
G1 X164.139 Y75.858 E60.14545
G1 X164.309 Y76.38 E60.15233
G1 X164.309 Y131.707 E60.84615
G1 X163.831 Y132.17 E60.8545
G1 X163.309 Y132.34 E60.86138
G1 X82.982 Y132.34 E61.86871
G1 X82.519 Y131.862 E61.87706
G1 X82.349 Y131.34 E61.88394
G1 X82.349 Y76.015 E62.57774
G0 F15000 X83.149 Y76.281
G1 F1800 X83.149 Y131.34 E63.2682
G1 X83.25 Y131.54 E63.27101
G1 X163.309 Y131.54 E64.27498
G1 X163.509 Y131.439 E64.27779
G1 X163.509 Y76.38 E64.96825
G1 X163.408 Y76.18 E64.97106
G1 X153.349 Y76.18 E65.0972
G1 X153.149 Y76.281 E65.10001
G1 X153.149 Y86.18 E65.22415
G1 X93.509 Y86.18 E65.97206
G1 X93.509 Y76.38 E66.09495
G1 X93.408 Y76.18 E66.09776
G1 X83.349 Y76.18 E66.22391
G1 X83.149 Y76.281 E66.22672
G0 F15000 X82.969 Y75.924
G1 F1800 X83.349 Y75.78 E66.23181
G1 X93.54 Y75.78 E66.35961
G1 X93.765 Y76 E66.36356
G1 X93.909 Y76.38 E66.36865
G1 X93.909 Y85.78 E66.48653
G1 X152.749 Y85.78 E67.22441
G1 X152.749 Y76.149 E67.34519
G1 X152.969 Y75.924 E67.34913
G1 X153.349 Y75.78 E67.35423
G1 X163.54 Y75.78 E67.48203
G1 X163.765 Y76 E67.48597
G1 X163.909 Y76.38 E67.49107
G1 X163.909 Y131.572 E68.1832
G1 X163.689 Y131.796 E68.18713
G1 X163.309 Y131.94 E68.19223
G1 X83.117 Y131.94 E69.19787
G1 X82.893 Y131.72 E69.20181
G1 X82.749 Y131.34 E69.2069
G1 X82.749 Y76.149 E69.89902
G1 X82.969 Y75.924 E69.90296
G1 F1500 E63.40296
G1 F600 Z2.2
G0 F15000 X99.68 Y103.14 Z2.2
G1 F600 Z0.2
G1 F1500 E69.90296
G1 F1800 X99.772 Y103.742 E69.9106
G1 X99.477 Y105.138 E69.92849
G1 X99 Y106.472 E69.94626
G1 X97.284 Y108.711 E69.98163
G1 X96.498 Y109.347 E69.99431
