;START_OF_HEADER
;HEADER_VERSION:0.1
;FLAVOR:Griffin
;GENERATOR.NAME:Cura_SteamEngine
;GENERATOR.VERSION:5.7.2
;GENERATOR.BUILD_DATE:2024-05-30
;TARGET_MACHINE.NAME:Ultimaker 3
;EXTRUDER_TRAIN.0.INITIAL_TEMPERATURE:200
;EXTRUDER_TRAIN.0.MATERIAL.VOLUME_USED:22880
;EXTRUDER_TRAIN.0.MATERIAL.GUID:506c9f0d-e3aa-4bd4-b2d2-23e2425b1aa9
;EXTRUDER_TRAIN.0.NOZZLE.DIAMETER:0.4
;EXTRUDER_TRAIN.0.NOZZLE.NAME:AA 0.4
;BUILD_PLATE.INITIAL_TEMPERATURE:60
;PRINT.TIME:9438
;PRINT.GROUPS:1
;PRINT.SIZE.MIN.X:9
;PRINT.SIZE.MIN.Y:6
;PRINT.SIZE.MIN.Z:0.2
;PRINT.SIZE.MAX.X:158.868
;PRINT.SIZE.MAX.Y:109.757
;PRINT.SIZE.MAX.Z:20
;SLICE_UUID:6d2016d8-b274-4b8f-87ad-31055bb025a0
;END_OF_HEADER
;Generated with Cura_SteamEngine 5.7.2
T0
M82 ;absolute extrusion mode

G92 E0
M190 S60
M104 S200
M109 S200
G0 F15000 X9 Y6 Z2
G280
G1 F1500 E-6.5
;LAYER_COUNT:100
;LAYER:0
M106 S255
M204 S1000
M205 X20 Y20
G1 F600 Z2.2
G0 F15000 X65.756 Y44.067 Z2.2
;TYPE:SKIRT
G1 F600 Z0.2
G1 F1500 E0
G1 F1800 X68.191 Y41.702 E0.04257
G1 X70.963 Y40.797 E0.07914
G1 X153.104 Y40.797 E1.10921
G1 X155.598 Y41.645 E1.14225
G1 X157.963 Y44.08 E1.18482
G1 X158.868 Y46.852 E1.22138
G1 X158.868 Y103.648 E1.93363
G1 X158.494 Y105.366 E1.95568
G1 X157.512 Y106.976 E1.97933
G1 X155.568 Y108.862 E2.01329
G1 X152.807 Y109.757 E2.04969
G1 X71.017 Y109.757 E3.07537
G1 X69.299 Y109.383 E3.09741
G1 X67.689 Y108.401 E3.12106
G1 X65.803 Y106.457 E3.15503
G1 X64.908 Y103.696 E3.19143
G1 X64.908 Y46.561 E3.90792
G1 X65.756 Y44.067 E3.94096
G0 F15000 X66.104 Y44.287
G1 F1800 X68.404 Y42.053 E3.98116
G1 X71.026 Y41.197 E4.01575
G1 X153.037 Y41.197 E5.0442
G1 X155.378 Y41.993 E5.07521
G1 X157.612 Y44.293 E5.11542
G1 X158.468 Y46.915 E5.15001
G1 X158.468 Y103.604 E5.86091
G1 X158.117 Y105.217 E5.88161
G1 X157.199 Y106.722 E5.90372
G1 X155.356 Y108.51 E5.93592
G1 X152.743 Y109.357 E5.97036
G1 X71.061 Y109.357 E6.99469
G1 X69.448 Y109.006 E7.01539
G1 X67.943 Y108.088 E7.03749
G1 X66.155 Y106.245 E7.0697
G1 X65.308 Y103.632 E7.10414
G1 X65.308 Y46.628 E7.81899
G1 X66.104 Y44.287 E7.85
G0 F15000 X66.452 Y44.507
G1 F1800 X68.617 Y42.404 E7.88785
G1 X71.089 Y41.597 E7.92046
G1 X152.97 Y41.597 E8.94728
G1 X155.158 Y42.341 E8.97626
G1 X157.261 Y44.506 E9.01411
G1 X158.068 Y46.978 E9.04672
G1 X158.068 Y103.56 E9.75628
G1 X157.74 Y105.068 E9.77563
G1 X156.886 Y106.468 E9.7962
G1 X155.144 Y108.158 E9.82663
G1 X152.679 Y108.957 E9.85913
G1 X71.105 Y108.957 E10.8821
G1 X69.597 Y108.629 E10.90145
G1 X68.197 Y107.775 E10.92202
G1 X66.507 Y106.033 E10.95245
G1 X65.708 Y103.568 E10.98495
G1 X65.708 Y46.695 E11.69816
G1 X66.452 Y44.507 E11.72714
G0 F15000 X66.8 Y44.727
G1 F1800 X68.83 Y42.755 E11.76263
G1 X71.152 Y41.997 E11.79326
G1 X152.903 Y41.997 E12.81845
G1 X154.938 Y42.689 E12.8454
G1 X156.91 Y44.719 E12.88089
G1 X157.668 Y47.041 E12.91152
G1 X157.668 Y103.516 E13.61974
G1 X157.363 Y104.919 E13.63775
G1 X156.573 Y106.214 E13.65677
G1 X154.932 Y107.806 E13.68544
G1 X152.615 Y108.557 E13.71599
G1 X71.149 Y108.557 E14.7376
G1 X69.746 Y108.252 E14.7556
G1 X68.451 Y107.462 E14.77463
G1 X66.859 Y105.821 E14.8033
G1 X66.108 Y103.504 E14.83384
G1 X66.108 Y46.762 E15.54541
G1 X66.8 Y44.727 E15.57236
G0 F15000 X67.148 Y44.947
G1 F1800 X69.043 Y43.106 E15.6055
G1 X71.215 Y42.397 E15.63415
G1 X152.836 Y42.397 E16.65771
G1 X154.718 Y43.037 E16.68263
G1 X156.559 Y44.932 E16.71577
G1 X157.268 Y47.104 E16.74442
G1 X157.268 Y103.472 E17.45129
G1 X156.986 Y104.77 E17.46795
G1 X156.26 Y105.96 E17.48543
G1 X154.72 Y107.454 E17.51234
G1 X152.551 Y108.157 E17.54093
G1 X71.193 Y108.157 E18.56119
G1 X69.895 Y107.875 E18.57785
G1 X68.705 Y107.149 E18.59533
G1 X67.211 Y105.609 E18.62224
G1 X66.508 Y103.44 E18.65083
G1 X66.508 Y46.829 E19.36075
G1 X67.148 Y44.947 E19.38568
G0 F15000 X67.496 Y45.167
G1 F1800 X69.256 Y43.457 E19.41645
G1 X71.278 Y42.797 E19.44313
G1 X152.769 Y42.797 E20.46505
G1 X154.498 Y43.385 E20.48796
G1 X156.208 Y45.145 E20.51873
G1 X156.868 Y47.167 E20.5454
G1 X156.868 Y103.428 E21.25094
G1 X156.609 Y104.621 E21.26624
G1 X155.947 Y105.706 E21.28218
G1 X154.508 Y107.102 E21.30733
G1 X152.487 Y107.757 E21.33397
G1 X71.237 Y107.757 E22.35287
G1 X70.044 Y107.498 E22.36818
G1 X68.959 Y106.836 E22.38412
G1 X67.563 Y105.397 E22.40926
G1 X66.908 Y103.376 E22.4359
G1 X66.908 Y46.896 E23.14418
G1 X67.496 Y45.167 E23.16709
G0 F15000 X67.844 Y45.387
G1 F1800 X69.469 Y43.808 E23.1955
G1 X71.341 Y43.197 E23.22019
G1 X152.702 Y43.197 E24.24049
G1 X154.278 Y43.733 E24.26137
G1 X155.857 Y45.358 E24.28978
G1 X156.468 Y47.23 E24.31448
G1 X156.468 Y103.384 E25.01867
G1 X156.232 Y104.472 E25.03263
G1 X155.634 Y105.452 E25.04703
G1 X154.296 Y106.75 E25.0704
G1 X152.423 Y107.357 E25.09509
G1 X71.281 Y107.357 E26.11264
G1 X70.193 Y107.121 E26.12661
G1 X69.213 Y106.523 E26.141
G1 X67.915 Y105.185 E26.16438
G1 X67.308 Y103.312 E26.18907
G1 X67.308 Y46.963 E26.89571
G1 X67.844 Y45.387 E26.91658
G0 F15000 X68.192 Y45.607
G1 F1800 X69.682 Y44.159 E26.94264
G1 X71.404 Y43.597 E26.96535
G1 X152.635 Y43.597 E27.98402
G1 X154.058 Y44.081 E28.00287
G1 X155.506 Y45.571 E28.02892
G1 X156.068 Y47.293 E28.05164
G1 X156.068 Y103.34 E28.75449
G1 X155.855 Y104.321 E28.76708
G1 X155.319 Y105.2 E28.77999
G1 X154.083 Y106.399 E28.80158
G1 X152.362 Y106.957 E28.82427
G1 X71.325 Y106.957 E29.84051
G1 X70.344 Y106.744 E29.8531
G1 X69.465 Y106.208 E29.86601
G1 X68.266 Y104.972 E29.8876
G1 X67.708 Y103.251 E29.91029
G1 X67.708 Y47.03 E30.61532
G1 X68.192 Y45.607 E30.63417
G0 F15000 X68.54 Y45.827
G1 F1800 X69.895 Y44.51 E30.65787
G1 X71.467 Y43.997 E30.6786
G1 X152.568 Y43.997 E31.69564
G1 X153.838 Y44.429 E31.71246
G1 X155.155 Y45.784 E31.73616
G1 X155.668 Y47.356 E31.75689
G1 X155.668 Y103.296 E32.4584
G1 X155.478 Y104.17 E32.46962
G1 X155.004 Y104.948 E32.48104
G1 X153.87 Y106.048 E32.50086
G1 X152.301 Y106.557 E32.52154
G1 X71.369 Y106.557 E33.53646
G1 X70.495 Y106.367 E33.54767
G1 X69.717 Y105.893 E33.5591
G1 X68.617 Y104.759 E33.57891
G1 X68.108 Y103.19 E33.5996
G1 X68.108 Y47.097 E34.30302
G1 X68.54 Y45.827 E34.31985
G0 F15000 X68.888 Y46.047
G1 F1800 X70.108 Y44.861 E34.34118
G1 X71.53 Y44.397 E34.35994
G1 X152.501 Y44.397 E35.37535
G1 X153.618 Y44.777 E35.39014
G1 X154.804 Y45.997 E35.41148
G1 X155.268 Y47.419 E35.43024
G1 X155.268 Y103.252 E36.1304
G1 X155.101 Y104.019 E36.14025
G1 X154.687 Y104.699 E36.15023
G1 X153.658 Y105.697 E36.16821
G1 X152.24 Y106.157 E36.1869
G1 X71.413 Y106.157 E37.2005
G1 X70.646 Y105.99 E37.21035
G1 X69.966 Y105.576 E37.22033
G1 X68.968 Y104.547 E37.23831
G1 X68.508 Y103.129 E37.257
G1 X68.508 Y47.164 E37.95882
G1 X68.888 Y46.047 E37.97362
G0 F15000 X69.236 Y46.267
G1 F1800 X70.321 Y45.212 E37.9926
G1 X71.593 Y44.797 E38.00938
G1 X152.434 Y44.797 E39.02315
G1 X153.398 Y45.125 E39.03592
G1 X154.453 Y46.21 E39.0549
G1 X154.868 Y47.482 E39.07168
G1 X154.868 Y103.208 E39.7705
G1 X154.724 Y103.868 E39.77897
G1 X154.37 Y104.45 E39.78752
G1 X153.446 Y105.346 E39.80366
G1 X152.179 Y105.757 E39.82036
G1 X71.457 Y105.757 E40.83264
G1 X70.797 Y105.613 E40.84112
G1 X70.215 Y105.259 E40.84966
G1 X69.319 Y104.335 E40.8658
G1 X68.908 Y103.068 E40.8825
G1 X68.908 Y47.231 E41.58272
G1 X69.236 Y46.267 E41.59549
G0 F15000 X69.584 Y46.487
G1 F1800 X70.534 Y45.563 E41.61211
G1 X71.656 Y45.197 E41.62691
G1 X152.367 Y45.197 E42.63905
G1 X153.178 Y45.473 E42.6498
G1 X154.102 Y46.423 E42.66642
G1 X154.468 Y47.545 E42.68122
G1 X154.468 Y103.164 E43.3787
G1 X154.347 Y103.717 E43.3858
G1 X154.053 Y104.201 E43.3929
G1 X153.234 Y104.995 E43.4072
G1 X152.118 Y105.357 E43.42192
G1 X71.501 Y105.357 E44.43288
G1 X70.948 Y105.236 E44.43998
G1 X70.464 Y104.942 E44.44708
G1 X69.67 Y104.123 E44.46139
G1 X69.308 Y103.007 E44.4761
G1 X69.308 Y47.298 E45.17471
G1 X69.584 Y46.487 E45.18546
G0 F15000 X69.932 Y46.707
G1 F1800 X70.747 Y45.914 E45.19972
G1 X71.719 Y45.597 E45.21254
G1 X152.3 Y45.597 E46.22305
G1 X152.958 Y45.821 E46.23177
G1 X153.751 Y46.636 E46.24603
G1 X154.068 Y47.608 E46.25885
G1 X154.068 Y103.164 E46.95554
G1 X153.958 Y103.624 E46.96148
G1 X153.775 Y103.914 E46.96578
G1 X153.023 Y104.643 E46.97891
G1 X152.056 Y104.957 E46.99166
G1 X71.501 Y104.957 E48.00185
G1 X71.041 Y104.847 E48.00778
G1 X70.751 Y104.664 E48.01208
G1 X70.022 Y103.912 E48.02522
G1 X69.708 Y102.945 E48.03797
G1 X69.708 Y47.365 E48.73496
G1 X69.932 Y46.707 E48.74368
G0 F15000 X70.28 Y46.927
G1 F1800 X70.96 Y46.265 E48.75558
G1 X71.782 Y45.997 E48.76642
G1 X152.233 Y45.997 E49.7753
G1 X152.738 Y46.169 E49.78199
G1 X153.4 Y46.849 E49.7939
G1 X153.668 Y47.671 E49.80474
G1 X153.668 Y103.124 E50.50014
G1 X153.609 Y103.428 E50.50402
G1 X153.497 Y103.627 E50.50689
G1 X152.812 Y104.291 E50.51885
G1 X151.994 Y104.557 E50.52964
G1 X71.541 Y104.557 E51.53855
G1 X71.237 Y104.498 E51.54243
G1 X71.038 Y104.386 E51.54529
G1 X70.374 Y103.701 E51.55726
G1 X70.108 Y102.883 E51.56804
G1 X70.108 Y47.432 E52.26342
G1 X70.28 Y46.927 E52.27011
G0 F15000 X70.559 Y47.214
G1 F1800 X71.173 Y46.616 E52.28086
G1 X71.845 Y46.397 E52.28972
G1 X152.233 Y46.397 E53.29782
G1 X152.451 Y46.448 E53.30062
G1 X153.049 Y47.062 E53.31137
G1 X153.268 Y47.734 E53.32024
G1 X153.268 Y103.124 E54.01485
G1 X153.219 Y103.34 E54.01763
G1 X152.601 Y103.939 E54.02842
G1 X151.931 Y104.157 E54.03725
G1 X71.541 Y104.157 E55.04537
G1 X71.325 Y104.108 E55.04815
G1 X70.726 Y103.49 E55.05894
G1 X70.508 Y102.82 E55.06778
G1 X70.508 Y47.432 E55.76237
G1 X70.559 Y47.214 E55.76517
G0 F15000 X70.908 Y47.432
G1 F1800 X71.386 Y46.967 E55.77354
G1 X71.908 Y46.797 E55.78042
G1 X152.233 Y46.797 E56.78773
G1 X152.698 Y47.275 E56.79609
G1 X152.868 Y47.797 E56.80297
G1 X152.868 Y103.124 E57.49679
G1 X152.39 Y103.587 E57.50514
G1 X151.868 Y103.757 E57.51202
G1 X71.541 Y103.757 E58.51935
G1 X71.078 Y103.279 E58.5277
G1 X70.908 Y102.757 E58.53458
G1 X70.908 Y47.432 E59.22838
G0 F15000 X71.708 Y47.698
G1 F1800 X71.908 Y47.597 E59.23119
G1 X151.967 Y47.597 E60.23516
G1 X152.068 Y47.797 E60.23797
G1 X152.068 Y102.856 E60.92843
G1 X151.868 Y102.957 E60.93124
G1 X71.809 Y102.957 E61.93521
G1 X71.708 Y102.757 E61.93802
G1 X71.708 Y47.698 E62.62848
G0 F15000 X71.528 Y47.341
G1 F1800 X71.908 Y47.197 E62.63358
G1 X152.099 Y47.197 E63.6392
G1 X152.324 Y47.417 E63.64315
G1 X152.468 Y47.797 E63.64824
G1 X152.468 Y102.989 E64.34037
G1 X152.248 Y103.213 E64.34431
G1 X151.868 Y103.357 E64.3494
G1 X71.676 Y103.357 E65.35504
G1 X71.452 Y103.137 E65.35898
G1 X71.308 Y102.757 E65.36407
G1 X71.308 Y47.566 E66.05619
G1 X71.528 Y47.341 E66.06014
G1 F1500 E59.56014
G1 F600 Z2.2
G0 F15000 X87.214 Y74.557 Z2.2
G1 F600 Z0.2
G1 F1500 E66.06014
G1 F1800 X87.11 Y76.186 E66.08061
G1 X86.299 Y78.187 E66.10768
G1 X84.964 Y79.618 E66.13222
G1 X84.347 Y80.124 E66.14223
G1 X83.386 Y81.411 E66.16237
G1 X81.504 Y82.548 E66.18995
G1 X79.975 Y83.04 E66.21009
G1 X78.668 Y83.069 E66.22648
G0 F15000 X78.668 Y82.668
G1 F1800 X79.908 Y82.641 E66.24204
G1 X81.338 Y82.181 E66.26088
G1 X83.111 Y81.11 E66.28685
G1 X84.054 Y79.847 E66.30662
G1 X84.671 Y79.345 E66.31659
G1 X85.956 Y77.967 E66.34022
G1 X86.715 Y76.095 E66.36555
G1 X86.813 Y74.557 E66.38488
G0 F15000 X86.412 Y74.557
G1 F1800 X86.32 Y76.004 E66.40306
G1 X85.613 Y77.747 E66.42665
G1 X84.378 Y79.072 E66.44936
G1 X83.765 Y79.567 E66.45924
G1 X82.838 Y80.808 E66.47867
G1 X81.173 Y81.813 E66.50306
G1 X79.84 Y82.242 E66.52062
G1 X78.668 Y82.268 E66.53532
G0 F15000 X78.668 Y81.867
G1 F1800 X79.772 Y81.843 E66.54917
G1 X81.009 Y81.445 E66.56546
G1 X82.565 Y80.506 E66.58825
G1 X83.477 Y79.286 E66.60735
G1 X84.085 Y78.799 E66.61712
G1 X85.27 Y77.527 E66.63892
G1 X85.925 Y75.913 E66.66077
G1 X86.011 Y74.557 E66.67781
G0 F15000 X85.61 Y74.557
G1 F1800 X85.53 Y75.822 E66.6937
G1 X84.927 Y77.309 E66.71382
G1 X83.835 Y78.487 E66.73397
G1 X83.187 Y79.006 E66.74438
G1 X82.291 Y80.204 E66.76314
G1 X80.843 Y81.078 E66.78435
G1 X79.705 Y81.444 E66.79934
G1 X78.668 Y81.467 E66.81235
G0 F15000 X78.668 Y81.066
G1 F1800 X79.637 Y81.045 E66.8245
G1 X80.678 Y80.71 E66.83822
G1 X82.017 Y79.902 E66.85783
G1 X82.897 Y78.726 E66.87625
G1 X83.585 Y78.175 E66.8873
G1 X84.583 Y77.092 E66.90577
G1 X85.135 Y75.731 E66.92419
G1 X85.209 Y74.557 E66.93894
G0 F15000 X84.808 Y74.557
G1 F1800 X84.74 Y75.64 E66.95255
G1 X84.239 Y76.875 E66.96926
G1 X83.291 Y77.904 E66.9868
G1 X82.606 Y78.447 E66.99777
G1 X81.743 Y79.6 E67.01583
G1 X80.512 Y80.343 E67.03386
G1 X79.57 Y80.646 E67.04627
G1 X78.668 Y80.665 E67.05758
G0 F15000 X78.668 Y80.265
G1 F1800 X79.503 Y80.247 E67.06805
G1 X80.346 Y79.976 E67.07916
G1 X81.469 Y79.298 E67.09561
G1 X82.317 Y78.166 E67.11335
G1 X83.042 Y77.591 E67.12495
G1 X83.895 Y76.658 E67.1408
G1 X84.345 Y75.549 E67.15581
G1 X84.407 Y74.557 E67.16828
G0 F15000 X84.006 Y74.557
G1 F1800 X83.95 Y75.458 E67.1796
G1 X83.551 Y76.442 E67.19291
G1 X82.793 Y77.278 E67.20706
G1 X82.028 Y77.885 E67.21931
G1 X81.196 Y78.996 E67.23672
G1 X80.179 Y79.609 E67.25161
G1 X79.436 Y79.848 E67.2614
G1 X78.668 Y79.865 E67.27103
G0 F15000 X78.668 Y79.464
G1 F1800 X79.369 Y79.449 E67.27982
G1 X80.01 Y79.243 E67.28827
G1 X80.924 Y78.692 E67.30165
G1 X81.739 Y77.604 E67.3187
G1 X82.544 Y76.965 E67.33159
G1 X83.207 Y76.226 E67.34404
G1 X83.555 Y75.367 E67.35566
G1 X83.605 Y74.557 E67.36584
G0 F15000 X83.204 Y74.557
G1 F1800 X83.16 Y75.276 E67.37487
G1 X82.862 Y76.013 E67.38484
G1 X82.295 Y76.652 E67.39555
G1 X81.45 Y77.323 E67.40908
G1 X80.65 Y78.39 E67.42581
G1 X79.845 Y78.876 E67.4376
G1 X79.302 Y79.05 E67.44475
G1 X78.668 Y79.064 E67.4527
G0 F15000 X78.668 Y78.664
G1 F1800 X79.293 Y78.65 E67.46054
G1 X79.672 Y78.513 E67.46559
G1 X80.376 Y78.088 E67.47591
G1 X81.161 Y77.042 E67.49231
G1 X82.046 Y76.339 E67.50648
G1 X82.516 Y75.8 E67.51545
G1 X82.765 Y75.185 E67.52377
G1 X82.803 Y74.557 E67.53166
G0 F15000 X82.403 Y74.557
G1 F1800 X82.394 Y75.035 E67.53765
G1 X82.17 Y75.589 E67.54515
G1 X81.774 Y76.043 E67.5527
G1 X81.411 Y76.318 E67.55841
G1 X81.015 Y76.648 E67.56488
G1 X80.667 Y77.033 E67.57139
G1 X80.102 Y77.786 E67.58319
G1 X79.465 Y78.171 E67.59253
G1 X79.166 Y78.271 E67.59648
G1 X78.668 Y78.264 E67.60273
G0 F15000 X78.668 Y77.865
G1 F1800 X79.056 Y77.887 E67.6076
G1 X79.258 Y77.829 E67.61023
G1 X79.828 Y77.484 E67.61859
G1 X80.358 Y76.778 E67.62966
G1 X80.736 Y76.36 E67.63673
G1 X81.169 Y75.999 E67.6438
G1 X81.532 Y75.724 E67.64951
G1 X81.824 Y75.377 E67.6552
G1 X82.023 Y74.885 E67.66185
G1 X82.004 Y74.557 E67.66597
G0 F15000 X81.64 Y74.557
G1 F1800 X81.646 Y74.75 E67.66839
G1 X81.511 Y75.128 E67.67343
G1 X81.29 Y75.405 E67.67787
G1 X80.918 Y75.687 E67.68372
G1 X80.46 Y76.068 E67.69119
G1 X80.049 Y76.523 E67.69888
G1 X79.554 Y77.182 E67.70922
G1 X79.051 Y77.487 E67.7166
G1 X78.668 Y77.492 E67.7214
G0 F15000 X78.668 Y77.12
G1 F1800 X79.015 Y77.089 E67.72577
G1 X79.234 Y76.942 E67.72908
G1 X79.74 Y76.268 E67.73964
G1 X80.184 Y75.776 E67.74796
G1 X80.662 Y75.379 E67.75575
G1 X81.049 Y75.086 E67.76184
G1 X81.186 Y74.895 E67.76478
G1 X81.233 Y74.557 E67.76906
G0 F15000 X80.466 Y74.557
G1 F1800 X80.175 Y74.742 E67.77339
G1 X79.632 Y75.193 E67.78224
G1 X79.12 Y75.761 E67.79183
G1 X78.668 Y76.363 E67.80127
G0 F15000 X78.668 Y76.758
G1 F1800 X78.914 Y76.702 E67.80443
G1 X79.429 Y76.016 E67.81519
G1 X79.908 Y75.485 E67.82416
G1 X80.814 Y74.732 E67.83893
G1 X80.849 Y74.557 E67.84117
G1 F1500 E61.34117
G0 F15000 X80.849 Y75.797
G0 X136.611 Y75.797
G0 X136.611 Y74.557
G1 F1500 E67.84117
G1 F1800 X136.64 Y75.864 E67.85756
G1 X137.133 Y77.396 E67.87774
G1 X138.267 Y79.274 E67.90526
G1 X139.611 Y80.281 E67.92632
G1 X140.782 Y81.647 E67.94888
G1 X142.546 Y82.595 E67.97399
G1 X144.192 Y83.068 E67.99547
G1 X145.108 Y82.995 E68.00699
