;START_OF_HEADER
;HEADER_VERSION:0.1
;FLAVOR:Griffin
;GENERATOR.NAME:Cura_SteamEngine
;GENERATOR.VERSION:5.7.2
;GENERATOR.BUILD_DATE:2024-05-30
;TARGET_MACHINE.NAME:Ultimaker 3 Extended
;EXTRUDER_TRAIN.0.INITIAL_TEMPERATURE:230
;EXTRUDER_TRAIN.0.MATERIAL.VOLUME_USED:8907
;EXTRUDER_TRAIN.0.MATERIAL.GUID:506c9f0d-e3aa-4bd4-b2d2-23e2425b1aa9
;EXTRUDER_TRAIN.0.NOZZLE.DIAMETER:0.4
;EXTRUDER_TRAIN.0.NOZZLE.NAME:AA 0.4
;BUILD_PLATE.INITIAL_TEMPERATURE:60
;PRINT.TIME:2745
;PRINT.GROUPS:1
;PRINT.SIZE.MIN.X:9
;PRINT.SIZE.MIN.Y:6
;PRINT.SIZE.MIN.Z:0.2
;PRINT.SIZE.MAX.X:129.485
;PRINT.SIZE.MAX.Y:126.985
;PRINT.SIZE.MAX.Z:35.95
;SLICE_UUID:02bcfa66-e4e6-47f7-bae6-92aaff8111a5
;END_OF_HEADER
;Generated with Cura_SteamEngine 5.7.2
T0
M82 ;absolute extrusion mode

G92 E0
M190 S60
M104 S230
M109 S230
G0 F18000 X9 Y6 Z2
G280
G1 F1500 E-6.5
;LAYER_COUNT:226
;LAYER:0
M106 S255
M204 S4286
M205 X40 Y40
G1 F600 Z2.2
G0 F18000 X103.901 Y62.174 Z2.2
M204 S3000
;TYPE:SKIRT
G1 F600 Z0.2
G1 F1500 E0
G1 F4800 X106.082 Y59.662 E0.04172
G1 X107.804 Y58.691 E0.06651
G1 X110.173 Y58.015 E0.0974
G1 X124.136 Y58.015 E0.2725
G1 X125.326 Y58.401 E0.28819
G1 X127.838 Y60.582 E0.32991
G1 X128.809 Y62.304 E0.3547
G1 X129.485 Y64.673 E0.3856
G1 X129.485 Y91.761 E0.72529
G1 X129.349 Y92.35 E0.73287
G1 X128.974 Y92.933 E0.74156
G1 X129.485 Y94.721 E0.76488
G1 X129.485 Y121.656 E1.10266
G1 X129.091 Y122.861 E1.11856
G1 X127.076 Y125.131 E1.15662
G1 X125.45 Y126.175 E1.18085
G1 X122.79 Y126.985 E1.21572
G1 X108.844 Y126.985 E1.39061
G1 X107.639 Y126.591 E1.40651
G1 X105.369 Y124.576 E1.44457
G1 X104.325 Y122.95 E1.4688
G1 X103.515 Y120.29 E1.50367
G1 X103.515 Y93.126 E1.84432
G1 X103.637 Y92.64 E1.8506
G1 X104.067 Y92.014 E1.86013
G1 X103.515 Y90.046 E1.88576
G1 X103.515 Y63.364 E2.22036
G1 X103.901 Y62.174 E2.23605
M204 S4286
G0 F18000 X104.256 Y62.375
M204 S3000
G1 F4800 X106.338 Y59.977 E2.27587
G1 X107.914 Y59.076 E2.29864
G1 X110.23 Y58.415 E2.32884
G1 X124.136 Y58.415 E2.50323
G1 X125.125 Y58.756 E2.51635
G1 X127.523 Y60.838 E2.55617
G1 X128.424 Y62.414 E2.57894
G1 X129.085 Y64.73 E2.60914
G1 X129.085 Y91.761 E2.94812
G1 X128.961 Y92.252 E2.95447
G1 X128.535 Y92.863 E2.96381
G1 X129.085 Y94.721 E2.98811
G1 X129.085 Y121.656 E3.32589
G1 X128.736 Y122.658 E3.33919
G1 X126.812 Y124.825 E3.37553
G1 X125.333 Y125.792 E3.39769
G1 X122.729 Y126.585 E3.43183
G1 X108.844 Y126.585 E3.60595
G1 X107.842 Y126.236 E3.61926
G1 X105.675 Y124.312 E3.6556
G1 X104.708 Y122.833 E3.67776
G1 X103.915 Y120.229 E3.71189
G1 X103.915 Y93.126 E4.05177
G1 X104.022 Y92.749 E4.05669
G1 X104.506 Y92.094 E4.0669
G1 X103.915 Y90.046 E4.09363
G1 X103.915 Y63.364 E4.42823
G1 X104.256 Y62.375 E4.44135
M204 S4286
G0 F18000 X104.558 Y62.637
M204 S3000
G1 F4800 X106.595 Y60.291 E4.48032
G1 X108.024 Y59.461 E4.50104
G1 X110.287 Y58.815 E4.53055
G1 X124.136 Y58.815 E4.70422
G1 X124.863 Y59.058 E4.71384
G1 X127.209 Y61.095 E4.7528
G1 X128.039 Y62.524 E4.77352
G1 X128.685 Y64.787 E4.80303
G1 X128.685 Y91.761 E5.1413
G1 X128.576 Y92.142 E5.14627
G1 X128.094 Y92.784 E5.15634
G1 X128.685 Y94.781 E5.18245
G1 X128.685 Y121.656 E5.51947
G1 X128.437 Y122.392 E5.52921
G1 X126.513 Y124.559 E5.56555
G1 X125.216 Y125.409 E5.585
G1 X122.668 Y126.185 E5.6184
G1 X108.844 Y126.185 E5.79176
G1 X108.108 Y125.937 E5.8015
G1 X105.941 Y124.013 E5.83784
G1 X105.091 Y122.716 E5.85729
G1 X104.315 Y120.168 E5.89069
G1 X104.315 Y93.126 E6.22981
G1 X104.4 Y92.879 E6.23308
G1 X104.948 Y92.179 E6.24423
G1 X104.315 Y90.046 E6.27213
G1 X104.315 Y63.364 E6.60673
G1 X104.558 Y62.637 E6.61635
M204 S4286
G0 F18000 X104.86 Y62.899
M204 S3000
G1 F4800 X106.853 Y60.604 E6.65446
G1 X108.134 Y59.846 E6.67313
G1 X110.344 Y59.215 E6.70195
G1 X124.136 Y59.215 E6.87491
G1 X124.601 Y59.36 E6.88102
G1 X126.896 Y61.353 E6.91913
G1 X127.654 Y62.634 E6.9378
G1 X128.285 Y64.844 E6.96662
G1 X128.285 Y91.761 E7.30417
G1 X128.198 Y92.01 E7.30748
G1 X127.651 Y92.699 E7.31851
G1 X128.285 Y94.841 E7.34652
G1 X128.285 Y121.656 E7.68279
G1 X128.138 Y122.126 E7.68897
G1 X126.214 Y124.293 E7.72531
G1 X125.099 Y125.026 E7.74204
G1 X122.607 Y125.785 E7.77471
G1 X108.844 Y125.785 E7.94731
G1 X108.374 Y125.638 E7.95348
G1 X106.207 Y123.714 E7.98982
G1 X105.474 Y122.599 E8.00655
G1 X104.715 Y120.107 E8.03922
G1 X104.715 Y93.126 E8.37757
G1 X105.392 Y92.261 E8.39135
G1 X104.715 Y90.046 E8.42039
G1 X104.715 Y63.364 E8.755
G1 X104.86 Y62.899 E8.7611
M204 S4286
G0 F18000 X105.162 Y63.161
M204 S3000
G1 F4800 X107.113 Y60.915 E8.79841
G1 X108.244 Y60.231 E8.81499
G1 X110.401 Y59.615 E8.84312
G1 X124.136 Y59.615 E9.01536
G1 X124.339 Y59.662 E9.01797
G1 X126.585 Y61.613 E9.05528
G1 X127.269 Y62.744 E9.07186
G1 X127.885 Y64.901 E9.09999
G1 X127.885 Y91.761 E9.43682
G1 X127.208 Y92.614 E9.45048
G1 X127.885 Y94.901 E9.48039
G1 X127.885 Y121.656 E9.81591
G1 X127.839 Y121.86 E9.81853
G1 X125.915 Y124.027 E9.85487
G1 X124.982 Y124.643 E9.86889
G1 X122.546 Y125.385 E9.90082
G1 X108.844 Y125.385 E10.07265
G1 X108.64 Y125.339 E10.07527
G1 X106.473 Y123.415 E10.11162
G1 X105.857 Y122.482 E10.12564
G1 X105.115 Y120.046 E10.15757
G1 X105.115 Y93.248 E10.49363
G1 X105.837 Y92.345 E10.50813
G1 X105.115 Y89.985 E10.53907
G1 X105.115 Y63.364 E10.87291
G1 X105.162 Y63.161 E10.87552
M204 S4286
G0 F18000 X105.515 Y63.364
M204 S3000
G1 F4800 X107.373 Y61.225 E10.91106
G1 X108.354 Y60.616 E10.92553
G1 X110.458 Y60.015 E10.95298
G1 X124.136 Y60.015 E11.1245
G1 X126.275 Y61.873 E11.16003
G1 X126.884 Y62.854 E11.17451
G1 X127.485 Y64.958 E11.20195
G1 X127.485 Y91.637 E11.53652
G1 X126.725 Y92.574 E11.55165
G1 X126.884 Y92.854 E11.55568
G1 X127.485 Y94.958 E11.58313
G1 X127.485 Y121.656 E11.91793
G1 X125.616 Y123.761 E11.95323
G1 X124.865 Y124.26 E11.96454
G1 X122.485 Y124.985 E11.99574
G1 X108.844 Y124.985 E12.1668
G1 X106.739 Y123.116 E12.2021
G1 X106.24 Y122.365 E12.21341
G1 X105.515 Y119.985 E12.24461
G1 X105.515 Y93.371 E12.57836
G1 X106.284 Y92.431 E12.59359
G1 X105.515 Y89.985 E12.62574
G1 X105.515 Y63.364 E12.95958
M204 S4286
G0 F18000 X105.915 Y63.491
M204 S3000
G1 F4800 X107.589 Y61.562 E12.99161
G1 X108.464 Y61.001 E13.00464
G1 X110.515 Y60.415 E13.03139
G1 X124.009 Y60.415 E13.20061
G1 X125.938 Y62.089 E13.23264
G1 X126.499 Y62.964 E13.24568
G1 X127.085 Y65.015 E13.27242
G1 X127.085 Y91.512 E13.60471
G1 X126.233 Y92.542 E13.62147
G1 X126.499 Y92.964 E13.62773
G1 X127.085 Y95.015 E13.65447
G1 X127.085 Y121.527 E13.98695
G1 X125.318 Y123.494 E14.0201
G1 X124.746 Y123.878 E14.02874
G1 X122.485 Y124.585 E14.05845
G1 X108.973 Y124.585 E14.2279
G1 X107.006 Y122.818 E14.26105
G1 X106.622 Y122.246 E14.26969
G1 X105.915 Y119.985 E14.2994
G1 X105.915 Y93.495 E14.6316
G1 X106.782 Y92.46 E14.64853
G1 X106.579 Y92.151 E14.65316
G1 X105.915 Y89.985 E14.68157
G1 X105.915 Y63.491 E15.01382
M204 S4286
G0 F18000 X106.315 Y63.618
M204 S3000
G1 F4800 X107.811 Y61.895 E15.04243
G1 X108.577 Y61.385 E15.05397
G1 X110.515 Y60.815 E15.07931
G1 X123.882 Y60.815 E15.24693
G1 X125.605 Y62.311 E15.27555
G1 X126.115 Y63.077 E15.28709
G1 X126.685 Y65.015 E15.31242
G1 X126.685 Y91.386 E15.64312
G1 X125.731 Y92.517 E15.66168
G1 X126.115 Y93.077 E15.67019
G1 X126.685 Y95.015 E15.69553
G1 X126.685 Y121.397 E16.02637
G1 X125.022 Y123.225 E16.05736
G1 X124.623 Y123.497 E16.06341
G1 X122.485 Y124.185 E16.09158
G1 X109.103 Y124.185 E16.25939
G1 X107.275 Y122.522 E16.29038
G1 X107.003 Y122.123 E16.29644
G1 X106.315 Y119.985 E16.3246
G1 X106.315 Y93.62 E16.65523
G1 X107.295 Y92.476 E16.67412
G1 X106.96 Y92.031 E16.68111
G1 X106.315 Y89.985 E16.70801
G1 X106.315 Y63.618 E17.03866
M204 S4286
G0 F18000 X106.715 Y63.745
M204 S3000
G1 F4800 X108.111 Y62.159 E17.06516
G1 X108.693 Y61.768 E17.07395
G1 X110.515 Y61.215 E17.09783
G1 X123.755 Y61.215 E17.26386
G1 X125.341 Y62.611 E17.29036
G1 X125.732 Y63.193 E17.29915
G1 X126.285 Y65.015 E17.32303
G1 X126.285 Y91.259 E17.65214
G1 X125.221 Y92.498 E17.67262
G1 X125.732 Y93.193 E17.68344
G1 X126.285 Y95.015 E17.70731
G1 X126.285 Y121.267 E18.03652
G1 X124.728 Y122.954 E18.06531
G1 X124.407 Y123.16 E18.0701
G1 X122.485 Y123.785 E18.09544
G1 X109.233 Y123.785 E18.26163
G1 X107.546 Y122.228 E18.29041
G1 X107.34 Y121.907 E18.2952
G1 X106.715 Y119.985 E18.32054
G1 X106.715 Y93.746 E18.64959
G1 X107.822 Y92.482 E18.67066
G1 X107.34 Y91.907 E18.68007
G1 X106.715 Y89.985 E18.70541
G1 X106.715 Y63.745 E19.03447
M204 S4286
G0 F18000 X107.115 Y63.873
M204 S3000
G1 F4800 X108.409 Y62.426 E19.05882
G1 X108.813 Y62.15 E19.06495
G1 X110.515 Y61.615 E19.08733
G1 X123.627 Y61.615 E19.25176
G1 X125.074 Y62.909 E19.2761
G1 X125.35 Y63.313 E19.28223
G1 X125.885 Y65.015 E19.30461
G1 X125.885 Y91.131 E19.63211
G1 X124.665 Y92.527 E19.65536
G1 X125.078 Y92.912 E19.66244
G1 X125.35 Y93.313 E19.66852
G1 X125.885 Y95.015 E19.69089
G1 X125.885 Y121.136 E20.01846
G1 X124.436 Y122.68 E20.04501
G1 X124.279 Y122.781 E20.04735
G1 X122.485 Y123.385 E20.07109
G1 X109.364 Y123.385 E20.23563
G1 X107.82 Y121.936 E20.26219
G1 X107.719 Y121.779 E20.26453
G1 X107.115 Y119.985 E20.28827
G1 X107.115 Y93.873 E20.61572
G1 X108.362 Y92.478 E20.63918
G1 X107.719 Y91.779 E20.6511
G1 X107.115 Y89.985 E20.67483
G1 X107.115 Y63.873 E21.00229
M204 S4286
G0 F18000 X107.515 Y64.001
M204 S3000
G1 F4800 X108.705 Y62.695 E21.02444
G1 X109.029 Y62.487 E21.02927
G1 X110.515 Y62.015 E21.04883
G1 X123.499 Y62.015 E21.21165
G1 X124.805 Y63.205 E21.23381
G1 X125.013 Y63.529 E21.23863
G1 X125.485 Y65.015 E21.25819
G1 X125.485 Y91.003 E21.58409
G1 X124.462 Y92.187 E21.60371
G1 X123.978 Y92.434 E21.61052
G1 X124.805 Y93.205 E21.6247
G1 X125.013 Y93.529 E21.62953
G1 X125.485 Y95.015 E21.64908
G1 X125.485 Y121.005 E21.97501
G1 X124.147 Y122.403 E21.99927
G1 X122.485 Y122.985 E22.02136
G1 X109.495 Y122.985 E22.18426
G1 X108.097 Y121.647 E22.20852
G1 X107.515 Y119.985 E22.23061
G1 X107.515 Y94.001 E22.55646
G1 X108.705 Y92.695 E22.57861
G1 X108.99 Y92.54 E22.58268
G1 X108.097 Y91.647 E22.59852
G1 X107.515 Y89.985 E22.6206
G1 X107.515 Y64.001 E22.94645
M204 S4286
G0 F18000 X107.915 Y64.13
M204 S3000
G1 F4800 X108.998 Y62.968 E22.96637
G1 X109.155 Y62.867 E22.96871
G1 X110.515 Y62.415 E22.98668
G1 X123.37 Y62.415 E23.14789
G1 X124.532 Y63.498 E23.16781
G1 X124.633 Y63.655 E23.17015
G1 X125.085 Y65.015 E23.18812
G1 X125.085 Y90.875 E23.51242
G1 X124.162 Y91.922 E23.52992
G1 X123.001 Y92.415 E23.54574
G1 X123.413 Y92.455 E23.55093
G1 X124.532 Y93.498 E23.57011
G1 X124.633 Y93.655 E23.57245
G1 X125.085 Y95.015 E23.59042
G1 X125.085 Y120.875 E23.91472
G1 X124.009 Y122.027 E23.93449
G1 X122.485 Y122.585 E23.95484
G1 X109.625 Y122.585 E24.11611
G1 X108.473 Y121.509 E24.13588
G1 X107.915 Y119.985 E24.15623
G1 X107.915 Y94.13 E24.48046
G1 X108.998 Y92.968 E24.50038
G1 X109.96 Y92.585 E24.51336
G1 X109.581 Y92.546 E24.51814
G1 X108.473 Y91.509 E24.53717
G1 X107.915 Y89.985 E24.55752
G1 X107.915 Y64.13 E24.88176
M204 S4286
G0 F18000 X108.315 Y64.26
M204 S3000
G1 F4800 X109.287 Y63.245 E24.89938
G1 X110.515 Y62.815 E24.9157
G1 X123.24 Y62.815 E25.07527
G1 X124.255 Y63.787 E25.0929
G1 X124.685 Y65.015 E25.10921
G1 X124.685 Y90.746 E25.43189
G1 X123.865 Y91.654 E25.44723
G1 X122.485 Y92.185 E25.46577
G1 X109.754 Y92.185 E25.62543
G1 X108.846 Y91.365 E25.64077
G1 X108.315 Y89.985 E25.65931
G1 X108.315 Y64.26 E25.98191
M204 S4286
G0 F18000 X108.715 Y64.388
M204 S3000
G1 F4800 X109.426 Y63.62 E25.99504
G1 X110.515 Y63.215 E26.00961
G1 X123.112 Y63.215 E26.16758
G1 X123.88 Y63.926 E26.1807
G1 X124.285 Y65.015 E26.19527
G1 X124.285 Y90.616 E26.51632
G1 X123.572 Y91.381 E26.52943
G1 X122.485 Y91.785 E26.54397
G1 X109.884 Y91.785 E26.702
G1 X109.119 Y91.072 E26.71511
G1 X108.715 Y89.985 E26.72965
G1 X108.715 Y64.388 E27.05065
M204 S4286
G0 F18000 X109.115 Y64.518
M204 S3000
G1 F4800 X109.714 Y63.898 E27.06146
G1 X110.515 Y63.615 E27.07211
G1 X122.982 Y63.615 E27.22845
G1 X123.602 Y64.214 E27.23926
G1 X123.885 Y65.015 E27.24992
G1 X123.885 Y90.485 E27.56932
G1 X123.285 Y91.102 E27.58011
G1 X122.485 Y91.385 E27.59076
G1 X110.015 Y91.385 E27.74713
G1 X109.398 Y90.785 E27.75793
G1 X109.115 Y89.985 E27.76857
G1 X109.115 Y64.518 E28.08793
M204 S4286
G0 F18000 X109.515 Y64.65
M204 S3000
G1 F4800 X109.993 Y64.185 E28.0963
G1 X110.515 Y64.015 E28.10318
G1 X122.85 Y64.015 E28.25787
G1 X123.315 Y64.493 E28.26623
G1 X123.485 Y65.015 E28.27311
G1 X123.485 Y90.352 E28.59085
G1 X123.007 Y90.815 E28.59919
G1 X122.485 Y90.985 E28.60608
G1 X110.148 Y90.985 E28.76079
G1 X109.685 Y90.507 E28.76913
G1 X109.515 Y89.985 E28.77602
G1 X109.515 Y64.65 E29.09373
M204 S4286
G0 F18000 X110.315 Y64.916
M204 S3000
G1 F4800 X110.515 Y64.815 E29.09654
G1 X122.584 Y64.815 E29.24789
G1 X122.685 Y65.015 E29.2507
G1 X122.685 Y90.084 E29.56507
G1 X122.485 Y90.185 E29.56788
G1 X110.416 Y90.185 E29.71923
G1 X110.315 Y89.985 E29.72204
G1 X110.315 Y64.916 E30.03642
M204 S4286
G0 F18000 X110.135 Y64.559
M204 S3000
G1 F4800 X110.515 Y64.415 E30.04151
G1 X122.716 Y64.415 E30.19452
G1 X122.941 Y64.635 E30.19846
G1 X123.085 Y65.015 E30.20356
G1 X123.085 Y90.217 E30.5196
G1 X122.865 Y90.441 E30.52354
G1 X122.485 Y90.585 E30.52864
G1 X110.283 Y90.585 E30.68165
G1 X110.059 Y90.365 E30.68559
G1 X109.915 Y89.985 E30.69069
G1 X109.915 Y64.784 E31.00672
G1 X110.135 Y64.559 E31.01066
M204 S4286
G1 F1500 E24.51066
G0 F18000 X107.475 Y64.559
G0 X107.475 Y92.815
G0 X110.515 Y92.815
M204 S3000
G1 F1500 E31.01066
G1 F4800 X123.24 Y92.815 E31.17024
G1 X124.255 Y93.787 E31.18786
G1 X124.685 Y95.015 E31.20418
G1 X124.685 Y120.746 E31.52686
G1 X123.865 Y121.654 E31.5422
G1 X122.485 Y122.185 E31.56074
G1 X109.754 Y122.185 E31.72039
G1 X108.846 Y121.365 E31.73573
G1 X108.315 Y119.985 E31.75428
G1 X108.315 Y94.26 E32.07688
G1 X109.287 Y93.245 E32.0945
G1 X110.515 Y92.815 E32.11082
M204 S4286
G0 F18000 X110.515 Y93.215
M204 S3000
G1 F4800 X123.112 Y93.215 E32.26879
G1 X123.88 Y93.926 E32.28191
G1 X124.285 Y95.015 E32.29648
G1 X124.285 Y120.616 E32.61753
G1 X123.572 Y121.381 E32.63064
G1 X122.485 Y121.785 E32.64519
G1 X109.884 Y121.785 E32.80321
G1 X109.119 Y121.072 E32.81632
G1 X108.715 Y119.985 E32.83086
G1 X108.715 Y94.388 E33.15186
G1 X109.426 Y93.62 E33.16499
G1 X110.515 Y93.215 E33.17956
M204 S4286
G0 F18000 X110.515 Y93.615
M204 S3000
G1 F4800 X122.982 Y93.615 E33.3359
G1 X123.602 Y94.214 E33.34671
G1 X123.885 Y95.015 E33.35736
G1 X123.885 Y120.485 E33.67676
G1 X123.285 Y121.102 E33.68756
G1 X122.485 Y121.385 E33.6982
G1 X110.015 Y121.385 E33.85458
G1 X109.398 Y120.785 E33.86537
G1 X109.115 Y119.985 E33.87601
G1 X109.115 Y94.518 E34.19538
G1 X109.714 Y93.898 E34.20619
G1 X110.515 Y93.615 E34.21684
M204 S4286
G0 F18000 X110.515 Y94.015
M204 S3000
G1 F4800 X122.85 Y94.015 E34.37153
G1 X123.315 Y94.493 E34.37989
G1 X123.485 Y95.015 E34.38677
G1 X123.485 Y120.352 E34.70451
G1 X123.007 Y120.815 E34.71285
G1 X122.485 Y120.985 E34.71974
G1 X110.148 Y120.985 E34.87445
G1 X109.685 Y120.507 E34.88279
G1 X109.515 Y119.985 E34.88968
G1 X109.515 Y94.65 E35.20739
G1 X109.993 Y94.185 E35.21575
G1 X110.515 Y94.015 E35.22264
M204 S4286
G0 F18000 X110.515 Y94.815
M204 S3000
G1 F4800 X122.584 Y94.815 E35.37399
G1 X122.685 Y95.015 E35.3768
G1 X122.685 Y120.084 E35.69117
G1 X122.485 Y120.185 E35.69398
G1 X110.416 Y120.185 E35.84533
G1 X110.315 Y119.985 E35.84814
G1 X110.315 Y94.916 E36.16251
G1 X110.515 Y94.815 E36.16532
M204 S4286
G0 F18000 X110.515 Y94.415
M204 S3000
G1 F4800 X122.716 Y94.415 E36.31833
G1 X122.941 Y94.635 E36.32227
G1 X123.085 Y95.015 E36.32737
G1 X123.085 Y120.217 E36.64341
G1 X122.865 Y120.441 E36.64735
G1 X122.485 Y120.585 E36.65245
G1 X110.283 Y120.585 E36.80546
G1 X110.059 Y120.365 E36.8094
G1 X109.915 Y119.985 E36.8145
G1 X109.915 Y94.784 E37.13053
G1 X110.135 Y94.559 E37.13447
G1 X110.515 Y94.415 E37.13957
M204 S4286
G1 F1500 E30.63957
;MESH:Untitled v2.stl(1)
G0 F18000 X114.52 Y98.374
G0 X116.198 Y99.933
M204 S858
;TYPE:WALL-OUTER
G1 F1500 E37.13957
G1 F4800 X115.64 Y99.688 E37.14798
G1 X115.211 Y99.207 E37.15687
G1 X115.098 Y98.927 E37.16103
G1 X115.04 Y98.368 E37.16878
G1 X115.217 Y97.786 E37.17718
G1 X115.673 Y97.293 E37.18644
G1 X116.197 Y97.063 E37.19433
G1 X116.843 Y97.077 E37.20325
