;START_OF_HEADER
;HEADER_VERSION:0.1
;FLAVOR:Griffin
;GENERATOR.NAME:Cura_SteamEngine
;GENERATOR.VERSION:5.7.2
;GENERATOR.BUILD_DATE:2024-05-30
;TARGET_MACHINE.NAME:Ultimaker 3 Extended
;EXTRUDER_TRAIN.0.INITIAL_TEMPERATURE:205
;EXTRUDER_TRAIN.0.MATERIAL.VOLUME_USED:4791
;EXTRUDER_TRAIN.0.MATERIAL.GUID:506c9f0d-e3aa-4bd4-b2d2-23e2425b1aa9
;EXTRUDER_TRAIN.0.NOZZLE.DIAMETER:0.4
;EXTRUDER_TRAIN.0.NOZZLE.NAME:AA 0.4
;BUILD_PLATE.INITIAL_TEMPERATURE:60
;PRINT.TIME:1661
;PRINT.GROUPS:1
;PRINT.SIZE.MIN.X:9
;PRINT.SIZE.MIN.Y:6
;PRINT.SIZE.MIN.Z:0.2
;PRINT.SIZE.MAX.X:129.48
;PRINT.SIZE.MAX.Y:126.98
;PRINT.SIZE.MAX.Z:36
;SLICE_UUID:64d883f0-5ca5-4a5e-a826-b0095e966757
;END_OF_HEADER
;Generated with Cura_SteamEngine 5.7.2
T0
M82 ;absolute extrusion mode

G92 E0
M190 S60
M104 S205
M109 S205
G0 F15000 X9 Y6 Z2
G280
G1 F1500 E-6.5
;LAYER_COUNT:170
;LAYER:0
M106 S255
M204 S1000
M205 X40 Y40
G1 F600 Z2.2
G0 F15000 X104.296 Y91.562 Z2.2
;TYPE:SKIRT
G1 F600 Z0.2
G1 F1500 E0
G1 F1800 X105.908 Y89.83 E0.02967
G1 X107.526 Y88.773 E0.05391
G1 X109.794 Y88.02 E0.08388
G1 X123.705 Y88.02 E0.25833
G1 X125.938 Y88.796 E0.28797
G1 X127.67 Y90.408 E0.31764
G1 X128.727 Y92.026 E0.34188
G1 X129.48 Y94.294 E0.37185
G1 X129.48 Y121.078 E0.70773
G1 X128.918 Y123.167 E0.73486
G1 X127.054 Y125.282 E0.77021
G1 X125.954 Y125.985 E0.78658
G1 X123.368 Y126.98 E0.82133
G1 X109.422 Y126.98 E0.99622
G1 X107.333 Y126.418 E1.02334
G1 X105.218 Y124.554 E1.0587
G1 X104.515 Y123.454 E1.07507
G1 X103.52 Y120.868 E1.10982
G1 X103.52 Y93.795 E1.44932
G1 X104.296 Y91.562 E1.47897
G0 F15000 X104.646 Y91.774
G1 F1800 X106.169 Y90.138 E1.507
G1 X107.701 Y89.137 E1.52995
G1 X109.86 Y88.42 E1.55847
G1 X123.637 Y88.42 E1.73124
G1 X125.726 Y89.146 E1.75898
G1 X127.362 Y90.669 E1.78701
G1 X128.363 Y92.201 E1.80996
G1 X129.08 Y94.36 E1.83848
G1 X129.08 Y121.026 E2.17289
G1 X128.557 Y122.972 E2.19816
G1 X126.754 Y125.017 E2.23234
G1 X125.81 Y125.612 E2.24634
G1 X123.294 Y126.58 E2.28014
G1 X109.474 Y126.58 E2.45345
G1 X107.528 Y126.057 E2.47872
G1 X105.483 Y124.254 E2.51291
G1 X104.888 Y123.31 E2.5269
G1 X103.92 Y120.794 E2.56071
G1 X103.92 Y93.863 E2.89843
G1 X104.646 Y91.774 E2.92617
G0 F15000 X104.996 Y91.986
G1 F1800 X106.43 Y90.446 E2.95256
G1 X107.876 Y89.501 E2.97422
G1 X109.926 Y88.82 E3.00131
G1 X123.569 Y88.82 E3.1724
G1 X125.514 Y89.496 E3.19822
G1 X127.054 Y90.93 E3.22461
G1 X127.999 Y92.376 E3.24627
G1 X128.68 Y94.426 E3.27336
G1 X128.68 Y120.974 E3.60628
G1 X128.195 Y122.778 E3.62971
G1 X126.494 Y124.708 E3.66197
G1 X125.666 Y125.239 E3.6743
G1 X123.22 Y126.18 E3.70717
G1 X109.526 Y126.18 E3.8789
G1 X107.722 Y125.695 E3.90232
G1 X105.792 Y123.994 E3.93458
G1 X105.261 Y123.166 E3.94692
G1 X104.32 Y120.72 E3.97978
G1 X104.32 Y93.931 E4.31573
G1 X104.996 Y91.986 E4.34155
G0 F15000 X105.346 Y92.198
G1 F1800 X106.691 Y90.754 E4.3663
G1 X108.051 Y89.865 E4.38667
G1 X109.992 Y89.22 E4.41232
G1 X123.501 Y89.22 E4.58173
G1 X125.302 Y89.846 E4.60564
G1 X126.746 Y91.191 E4.63039
G1 X127.635 Y92.551 E4.65076
G1 X128.28 Y94.492 E4.67641
G1 X128.28 Y120.922 E5.00785
G1 X127.833 Y122.584 E5.02944
G1 X126.233 Y124.4 E5.05979
G1 X125.522 Y124.866 E5.07045
G1 X123.146 Y125.78 E5.10237
G1 X109.578 Y125.78 E5.27252
G1 X107.916 Y125.333 E5.2941
G1 X106.1 Y123.733 E5.32446
G1 X105.634 Y123.022 E5.33512
G1 X104.72 Y120.646 E5.36704
G1 X104.72 Y93.999 E5.7012
G1 X105.346 Y92.198 E5.72512
G0 F15000 X105.696 Y92.41
G1 F1800 X106.952 Y91.062 E5.74822
G1 X108.226 Y90.229 E5.76731
G1 X110.058 Y89.62 E5.79152
G1 X123.433 Y89.62 E5.95925
G1 X125.09 Y90.196 E5.98125
G1 X126.438 Y91.452 E6.00435
G1 X127.271 Y92.726 E6.02344
G1 X127.88 Y94.558 E6.04765
G1 X127.88 Y120.87 E6.37761
G1 X127.472 Y122.389 E6.39733
G1 X125.969 Y124.094 E6.42584
G1 X125.378 Y124.493 E6.43478
G1 X123.072 Y125.38 E6.46576
G1 X109.63 Y125.38 E6.63433
G1 X108.111 Y124.972 E6.65406
G1 X106.406 Y123.469 E6.68256
G1 X106.007 Y122.878 E6.6915
G1 X105.12 Y120.572 E6.72248
G1 X105.12 Y94.067 E7.05487
G1 X105.696 Y92.41 E7.07687
G0 F15000 X106.046 Y92.622
G1 F1800 X107.245 Y91.335 E7.09892
G1 X108.352 Y90.609 E7.11553
G1 X110.124 Y90.02 E7.13894
G1 X123.365 Y90.02 E7.30499
G1 X124.878 Y90.546 E7.32508
G1 X126.165 Y91.745 E7.34713
G1 X126.891 Y92.852 E7.36374
G1 X127.48 Y94.624 E7.38715
G1 X127.48 Y120.87 E7.71629
G1 X127.11 Y122.195 E7.73354
G1 X125.702 Y123.793 E7.76025
G1 X125.234 Y124.12 E7.76741
G1 X122.998 Y124.98 E7.79745
G1 X109.63 Y124.98 E7.96509
G1 X108.305 Y124.61 E7.98234
G1 X106.707 Y123.202 E8.00905
G1 X106.38 Y122.734 E8.01621
G1 X105.52 Y120.498 E8.04625
G1 X105.52 Y94.135 E8.37685
G1 X106.046 Y92.622 E8.39694
G0 F15000 X106.397 Y92.833
G1 F1800 X107.538 Y91.608 E8.41794
G1 X108.478 Y90.989 E8.43205
G1 X110.19 Y90.42 E8.45467
G1 X123.365 Y90.42 E8.61989
G1 X124.667 Y90.897 E8.63728
G1 X125.892 Y92.038 E8.65827
G1 X126.511 Y92.978 E8.67239
G1 X127.08 Y94.69 E8.69501
G1 X127.08 Y120.87 E9.02332
G1 X126.749 Y122 E9.03809
G1 X125.402 Y123.529 E9.06364
G1 X125.09 Y123.747 E9.06841
G1 X122.924 Y124.58 E9.09751
G1 X109.63 Y124.58 E9.26423
G1 X108.5 Y124.249 E9.27899
G1 X106.971 Y122.902 E9.30455
G1 X106.753 Y122.59 E9.30932
G1 X105.92 Y120.424 E9.33842
G1 X105.92 Y94.135 E9.66809
G1 X106.397 Y92.833 E9.68548
G0 F15000 X106.69 Y93.106
G1 F1800 X107.831 Y91.881 E9.70648
G1 X108.604 Y91.369 E9.7181
G1 X110.256 Y90.82 E9.73993
G1 X123.365 Y90.82 E9.90433
G1 X124.394 Y91.19 E9.91804
G1 X125.619 Y92.331 E9.93903
G1 X126.131 Y93.104 E9.95066
G1 X126.68 Y94.756 E9.97249
G1 X126.68 Y120.87 E10.29997
G1 X126.39 Y121.803 E10.31222
G1 X125.102 Y123.265 E10.33666
G1 X124.946 Y123.374 E10.33904
G1 X122.85 Y124.18 E10.3672
G1 X109.63 Y124.18 E10.53299
G1 X108.697 Y123.89 E10.54524
G1 X107.235 Y122.602 E10.56967
G1 X107.126 Y122.446 E10.57206
G1 X106.32 Y120.35 E10.60022
G1 X106.32 Y94.135 E10.92897
G1 X106.69 Y93.106 E10.94268
G0 F15000 X106.983 Y93.379
G1 F1800 X108.124 Y92.154 E10.96367
G1 X108.73 Y91.749 E10.97281
G1 X110.322 Y91.22 E10.99385
G1 X123.365 Y91.22 E11.15742
G1 X124.121 Y91.483 E11.16745
G1 X125.346 Y92.624 E11.18845
G1 X125.751 Y93.23 E11.19759
G1 X126.28 Y94.822 E11.21863
G1 X126.28 Y120.87 E11.54528
G1 X126.034 Y121.603 E11.55497
G1 X124.802 Y123.001 E11.57834
G1 X122.776 Y123.78 E11.60556
G1 X109.63 Y123.78 E11.77042
G1 X108.897 Y123.534 E11.78011
G1 X107.499 Y122.302 E11.80348
G1 X106.72 Y120.276 E11.8307
G1 X106.72 Y94.135 E12.15852
G1 X106.983 Y93.379 E12.16856
G0 F15000 X107.276 Y93.652
G1 F1800 X108.417 Y92.427 E12.18955
G1 X108.856 Y92.129 E12.1962
G1 X110.388 Y91.62 E12.21645
G1 X123.365 Y91.62 E12.37918
G1 X123.848 Y91.776 E12.38555
G1 X125.073 Y92.917 E12.40654
G1 X125.371 Y93.356 E12.4132
G1 X125.88 Y94.888 E12.43344
G1 X125.88 Y120.87 E12.75926
G1 X125.734 Y121.339 E12.76542
G1 X124.567 Y122.663 E12.78756
G1 X122.702 Y123.38 E12.81261
G1 X109.63 Y123.38 E12.97654
G1 X109.161 Y123.234 E12.9827
G1 X107.837 Y122.067 E13.00483
G1 X107.12 Y120.202 E13.02989
G1 X107.12 Y94.135 E13.35678
G1 X107.276 Y93.652 E13.36314
G0 F15000 X107.569 Y93.925
G1 F1800 X108.71 Y92.7 E13.38414
G1 X109.034 Y92.492 E13.38897
G1 X110.454 Y92.02 E13.40773
G1 X123.365 Y92.02 E13.56964
G1 X123.575 Y92.069 E13.57234
G1 X124.8 Y93.21 E13.59334
G1 X125.008 Y93.534 E13.59817
G1 X125.48 Y94.954 E13.61693
G1 X125.48 Y120.87 E13.94193
G1 X125.434 Y121.074 E13.94455
G1 X124.331 Y122.325 E13.96547
G1 X122.628 Y122.98 E13.98835
G1 X109.63 Y122.98 E14.15135
G1 X109.426 Y122.934 E14.15397
G1 X108.175 Y121.831 E14.17488
G1 X107.52 Y120.128 E14.19777
G1 X107.52 Y94.135 E14.52373
G1 X107.569 Y93.925 E14.52643
G0 F15000 X107.92 Y94.135
G1 F1800 X109.003 Y92.973 E14.54635
G1 X109.16 Y92.872 E14.54869
G1 X110.52 Y92.42 E14.56666
G1 X123.365 Y92.42 E14.72775
G1 X124.527 Y93.503 E14.74767
G1 X124.628 Y93.66 E14.75001
G1 X125.08 Y95.02 E14.76798
G1 X125.08 Y120.87 E15.09215
G1 X124.095 Y121.987 E15.11082
G1 X122.554 Y122.58 E15.13153
G1 X109.63 Y122.58 E15.2936
G1 X108.513 Y121.595 E15.31228
G1 X107.92 Y120.054 E15.33298
G1 X107.92 Y94.135 E15.65802
G0 F15000 X108.32 Y94.265
G1 F1800 X109.292 Y93.25 E15.67564
G1 X110.52 Y92.82 E15.69196
G1 X123.235 Y92.82 E15.85141
G1 X124.25 Y93.792 E15.86903
G1 X124.68 Y95.02 E15.88535
G1 X124.68 Y120.741 E16.2079
G1 X123.86 Y121.649 E16.22324
G1 X122.48 Y122.18 E16.24178
G1 X109.759 Y122.18 E16.40131
G1 X108.851 Y121.36 E16.41665
G1 X108.32 Y119.98 E16.4352
G1 X108.32 Y94.265 E16.75767
G0 F15000 X108.72 Y94.393
G1 F1800 X109.431 Y93.625 E16.7708
G1 X110.52 Y93.22 E16.78537
G1 X123.107 Y93.22 E16.94321
G1 X123.875 Y93.931 E16.95634
G1 X124.28 Y95.02 E16.97091
G1 X124.28 Y120.611 E17.29183
G1 X123.567 Y121.376 E17.30494
G1 X122.48 Y121.78 E17.31948
G1 X109.889 Y121.78 E17.47738
G1 X109.124 Y121.067 E17.49049
G1 X108.72 Y119.98 E17.50504
G1 X108.72 Y94.393 E17.82591
G0 F15000 X109.12 Y94.523
G1 F1800 X109.719 Y93.903 E17.83672
G1 X110.52 Y93.62 E17.84737
G1 X122.977 Y93.62 E18.00359
G1 X123.597 Y94.219 E18.0144
G1 X123.88 Y95.02 E18.02505
G1 X123.88 Y120.48 E18.34433
G1 X123.28 Y121.097 E18.35512
G1 X122.48 Y121.38 E18.36576
G1 X110.02 Y121.38 E18.52202
G1 X109.403 Y120.78 E18.53281
G1 X109.12 Y119.98 E18.54345
G1 X109.12 Y94.523 E18.86269
G0 F15000 X109.52 Y94.655
G1 F1800 X109.998 Y94.19 E18.87105
G1 X110.52 Y94.02 E18.87794
G1 X122.845 Y94.02 E19.0325
G1 X123.31 Y94.498 E19.04086
G1 X123.48 Y95.02 E19.04774
G1 X123.48 Y120.347 E19.36535
G1 X123.002 Y120.81 E19.3737
G1 X122.48 Y120.98 E19.38058
G1 X110.153 Y120.98 E19.53517
G1 X109.69 Y120.502 E19.54351
G1 X109.52 Y119.98 E19.5504
G1 X109.52 Y94.655 E19.86798
G0 F15000 X110.32 Y94.921
G1 F1800 X110.52 Y94.82 E19.87079
G1 X122.579 Y94.82 E20.02202
G1 X122.68 Y95.02 E20.02483
G1 X122.68 Y120.079 E20.33908
G1 X122.48 Y120.18 E20.34189
G1 X110.421 Y120.18 E20.49311
G1 X110.32 Y119.98 E20.49592
G1 X110.32 Y94.921 E20.81017
G0 F15000 X110.14 Y94.564
G1 F1800 X110.52 Y94.42 E20.81527
G1 X122.711 Y94.42 E20.96815
G1 X122.936 Y94.64 E20.97209
G1 X123.08 Y95.02 E20.97719
G1 X123.08 Y120.212 E21.2931
G1 X122.86 Y120.436 E21.29704
G1 X122.48 Y120.58 E21.30214
G1 X110.288 Y120.58 E21.45503
G1 X110.064 Y120.36 E21.45897
G1 X109.92 Y119.98 E21.46406
G1 X109.92 Y94.789 E21.77997
G1 X110.14 Y94.564 E21.78391
M204 S429
G1 F1500 E15.28391
;MESH:Untitled.stl
G0 F15000 X115.207 Y99.362
G0 X116.553 Y101.715
;TYPE:WALL-OUTER
G1 F1500 E21.78391
G1 F1800 X115.953 Y101.593 E21.79236
G1 X115.52 Y101.229 E21.80016
G1 X115.299 Y100.715 E21.80788
G1 X115.32 Y100.201 E21.81498
G1 X115.599 Y99.671 E21.82324
G1 X116.113 Y99.342 E21.83166
G1 X116.62 Y99.288 E21.83869
G1 X117.172 Y99.477 E21.84674
G1 X117.527 Y99.851 E21.85385
G1 X117.66 Y100.128 E21.85809
G1 X117.702 Y100.711 E21.86615
G1 X117.478 Y101.227 E21.87391
G1 X117.079 Y101.579 E21.88125
G1 X116.553 Y101.715 E21.88875
G0 F15000 X116.357 Y101.676
G1 F1500 E15.38875
G1 F600 Z2.2
G0 F15000 X116.553 Y115.715 Z2.2
G1 F600 Z0.2
G1 F1500 E21.88875
G1 F1800 X115.994 Y115.607 E21.8966
G1 X115.529 Y115.24 E21.90477
G1 X115.299 Y114.715 E21.91268
G1 X115.32 Y114.201 E21.91978
G1 X115.611 Y113.657 E21.92829
G1 X116.084 Y113.35 E21.93607
G1 X116.615 Y113.288 E21.94344
G1 X117.168 Y113.475 E21.95149
G1 X117.527 Y113.851 E21.95866
G1 X117.66 Y114.128 E21.9629
G1 X117.702 Y114.711 E21.97097
G1 X117.468 Y115.24 E21.97894
G1 X117.037 Y115.595 E21.98665
G1 X116.553 Y115.715 E21.99353
G0 F15000 X116.357 Y115.678
G1 F1500 E15.49353
G0 F15000 X116.288 Y115.98
G0 X117.464 Y115.916
G0 X117.464 Y119.26
G0 X122.28 Y119.78
G1 F1500 E21.99353
G1 F1800 X122.28 Y95.22 E22.33232
G1 X110.72 Y95.22 E22.49178
G1 X110.72 Y119.78 E22.83057
G1 X122.28 Y119.78 E22.99003
M204 S1000
G0 F15000 X122.28 Y119.58
G0 X121.88 Y119.38
;TYPE:WALL-INNER
G1 F1800 X121.88 Y95.62 E23.2731
G1 X111.12 Y95.62 E23.40128
G1 X111.12 Y119.38 E23.68434
G1 X121.88 Y119.38 E23.81253
G1 F1500 E17.31253
G0 F15000 X116.608 Y119.26
G0 X116.638 Y116.208
G0 X116.608 Y116.111
G1 F1500 E23.81253
G1 F1800 X115.903 Y115.997 E23.82104
G1 X115.652 Y115.871 E23.82439
G1 X115.227 Y115.502 E23.83109
G1 X114.944 Y114.917 E23.83883
G1 X114.92 Y114.181 E23.84761
G1 X114.998 Y113.916 E23.8509
G1 X115.323 Y113.38 E23.85836
G1 X115.956 Y112.971 E23.86734
G1 X116.607 Y112.888 E23.87516
G1 X117.382 Y113.137 E23.88486
G1 X117.82 Y113.579 E23.89227
G1 X118.026 Y113.968 E23.89752
G1 X118.096 Y114.78 E23.90723
G1 X117.77 Y115.502 E23.91666
G1 X117.388 Y115.849 E23.92281
G1 X117.133 Y115.983 E23.92624
G1 X116.608 Y116.111 E23.93268
G1 F1500 E17.43268
G1 F600 Z2.2
G0 F15000 X116.573 Y102.117 Z2.2
G1 F600 Z0.2
G1 F1500 E23.93268
G1 F1800 X115.78 Y101.953 E23.94233
G1 X115.201 Y101.47 E23.95131
G1 X114.896 Y100.68 E23.9614
G1 X114.92 Y100.181 E23.96735
G1 X114.998 Y99.916 E23.97064
G1 X115.287 Y99.421 E23.97747
G1 X115.819 Y99.037 E23.98529
G1 X116.044 Y98.948 E23.98817
G1 X116.62 Y98.888 E23.99507
G1 X117.394 Y99.145 E24.00478
G1 X117.82 Y99.579 E24.01203
G1 X118.026 Y99.968 E24.01727
G1 X118.096 Y100.78 E24.02698
G1 X117.8 Y101.464 E24.03586
G1 X117.259 Y101.936 E24.04442
G1 X116.573 Y102.117 E24.05287
G0 F15000 X116.42 Y102.432
;TYPE:SKIN
G1 F1800 X115.639 Y102.24 E24.06197
G1 X114.924 Y101.62 E24.07268
G1 X114.591 Y100.835 E24.08233
G1 X114.607 Y100.124 E24.09038
G1 X114.723 Y99.746 E24.09486
G1 X115.035 Y99.222 E24.10176
G1 X115.669 Y98.754 E24.11068
G1 X115.989 Y98.63 E24.11456
G1 X116.612 Y98.568 E24.12165
G1 X117.523 Y98.858 E24.13247
G1 X118.047 Y99.355 E24.14064
G1 X118.328 Y99.89 E24.14748
G1 X118.406 Y100.835 E24.15821
G1 X118.024 Y101.683 E24.16874
G1 X117.399 Y102.221 E24.17807
G1 X116.42 Y102.432 E24.1894
G1 F1500 E17.6894
G1 F600 Z2.2
G0 F15000 X116.671 Y116.425 Z2.2
G1 F600 Z0.2
G1 F1500 E24.1894
G1 F1800 X115.849 Y116.31 E24.1988
G1 X115.436 Y116.107 E24.20401
G1 X114.988 Y115.715 E24.21074
G1 X114.591 Y114.835 E24.22167
G1 X114.607 Y114.129 E24.22966
G1 X114.725 Y113.743 E24.23423
G1 X115.127 Y113.128 E24.24255
G1 X115.853 Y112.665 E24.25229
G1 X116.756 Y112.577 E24.26256
G1 X117.55 Y112.865 E24.27212
G1 X118.076 Y113.395 E24.28057
G1 X118.328 Y113.89 E24.28686
G1 X118.406 Y114.835 E24.29759
G1 X118.004 Y115.715 E24.30854
G1 X117.569 Y116.106 E24.31516
G1 X117.197 Y116.295 E24.31988
G1 X116.671 Y116.425 E24.32601
G1 F1500 E17.82601
G0 F15000 X116.634 Y116.128
G0 X117.464 Y115.916
G0 X121.76 Y115.916
G0 X121.56 Y119.06
G1 F1500 E24.32601
G1 F1800 X121.56 Y95.94 E24.58768
G1 X111.44 Y95.94 E24.70221
G1 X111.44 Y119.06 E24.96388
G1 X121.56 Y119.06 E25.07841
G0 F15000 X121.86 Y119.06
G0 X112.071 Y119.36
G0 X112.071 Y118.86
G1 F1800 X111.64 Y118.428 E25.08532
G0 F15000 X111.64 Y117.863
G1 F1800 X112.637 Y118.86 E25.10128
G0 F15000 X113.203 Y118.86
G1 F1800 X111.64 Y117.297 E25.12629
G0 F15000 X111.64 Y116.731
G1 F1800 X113.769 Y118.86 E25.16037
G0 F15000 X114.334 Y118.86
G1 F1800 X111.64 Y116.166 E25.20349
G0 F15000 X111.64 Y115.6
G1 F1800 X114.9 Y118.86 E25.25567
G0 F15000 X115.466 Y118.86
G1 F1800 X111.64 Y115.034 E25.3169
G0 F15000 X111.64 Y114.469
G1 F1800 X116.031 Y118.86 E25.38718
G0 F15000 X116.597 Y118.86
G1 F1800 X111.64 Y113.903 E25.46652
G0 F15000 X111.64 Y113.337
G1 F1800 X117.163 Y118.86 E25.55492
G0 F15000 X117.728 Y118.86
G1 F1800 X111.64 Y112.772 E25.65237
G0 F15000 X111.64 Y112.206
G1 F1800 X114.469 Y115.035 E25.69765
G0 F15000 X114.399 Y114.399
G1 F1800 X111.64 Y111.64 E25.7418
G0 F15000 X111.64 Y111.074
G1 F1800 X114.469 Y113.904 E25.78709
G0 F15000 X114.652 Y113.521
G1 F1800 X111.64 Y110.509 E25.8353
G0 F15000 X111.64 Y109.943
G1 F1800 X114.876 Y113.179 E25.8871
G0 F15000 X115.144 Y112.881
G1 F1800 X111.64 Y109.377 E25.94318
G0 F15000 X111.64 Y108.812
G1 F1800 X115.491 Y112.663 E26.00482
G0 F15000 X115.861 Y112.467
G1 F1800 X111.64 Y108.246 E26.07238
G0 F15000 X111.64 Y107.68
G1 F1800 X116.371 Y112.412 E26.14811
G0 F15000 X116.999 Y112.473
G1 F1800 X111.64 Y107.115 E26.23387
G0 F15000 X111.64 Y106.549
G1 F1800 X121.36 Y116.269 E26.38945
G0 F15000 X121.36 Y116.835
G1 F1800 X118.539 Y114.014 E26.4346
G0 F15000 X118.593 Y114.633
G1 F1800 X121.36 Y117.4 E26.47889
G0 F15000 X121.36 Y117.966
G1 F1800 X118.483 Y115.089 E26.52494
G0 F15000 X118.312 Y115.483
